; generated by Slic3r 1.37.2.1-prusa3d-win64 on 2018-02-11 at 17:17:59

; 

; external perimeters extrusion width = 0.45mm
; perimeters extrusion width = 0.45mm
; infill extrusion width = 0.45mm
; solid infill extrusion width = 0.45mm
; top infill extrusion width = 0.40mm
; support material extrusion width = 0.35mm
; first layer extrusion width = 0.42mm

M107 ; disable fan
M115 U3.1.1-RC5 ; tell printer latest fw version
M83  ; extruder relative mode
M104 S255 ; set extruder temp
M140 S100 ; set bed temp
M190 S100 ; wait for bed temp
M109 S255 ; wait for extruder temp
G28 W ; home all without mesh bed level
G80 ; mesh bed leveling
G1 Y-3.0 F1000.0 ; go outside print area
G92 E0.0
G1 X60.0 E9.0  F1000.0 ; intro line
G1 X100.0 E12.5  F1000.0 ; intro line
G92 E0.0
M221 S95
M900 K30 
Filament gcode
G21 ; set units to millimeters
G90 ; use absolute coordinates
M83 ; use relative distances for extrusion
;BEFORE_LAYER_CHANGE
;0.2


G1 E-0.80000 F2100.00000 ; retract
G1 Z0.600 F12000.000 ; lift Z
;AFTER_LAYER_CHANGE
;0.2
G1 X85.056 Y67.319 F12000.000 ; move to first skirt point
G1 Z0.200 F12000.000 ; restore layer Z
G1 E0.80000 F2100.00000 ; unretract
M204 S1000 ; adjust acceleration
G1 F1800
G1 X86.273 Y66.211 E0.05160 ; skirt
G1 X95.619 Y59.069 E0.36881 ; skirt
G1 X96.766 Y58.354 E0.04239 ; skirt
G1 X98.004 Y57.790 E0.04264 ; skirt
G1 X104.982 Y55.326 E0.23203 ; skirt
G1 X106.842 Y54.903 E0.05980 ; skirt
G1 X108.135 Y54.813 E0.04065 ; skirt
G1 X120.528 Y54.813 E0.38857 ; skirt
G1 X121.624 Y54.871 E0.03442 ; skirt
G1 X142.803 Y57.185 E0.66800 ; skirt
G1 X144.388 Y57.489 E0.05060 ; skirt
G1 X146.145 Y58.146 E0.05881 ; skirt
G1 X151.598 Y60.960 E0.19239 ; skirt
G1 X152.861 Y61.873 E0.04886 ; skirt
G1 X155.771 Y64.478 E0.12246 ; skirt
G1 X161.270 Y70.014 E0.24465 ; skirt
G1 X163.753 Y73.128 E0.12491 ; skirt
G1 X164.371 Y74.140 E0.03716 ; skirt
G1 X164.869 Y75.215 E0.03716 ; skirt
G1 X165.389 Y76.968 E0.05732 ; skirt
G1 X169.980 Y100.396 E0.74853 ; skirt
G1 X170.121 Y102.019 E0.05110 ; skirt
G1 X170.121 Y117.439 E0.48347 ; skirt
G1 X169.960 Y119.252 E0.05707 ; skirt
G1 X169.677 Y120.435 E0.03816 ; skirt
G1 X169.257 Y121.578 E0.03816 ; skirt
G1 X165.074 Y130.861 E0.31928 ; skirt
G1 X164.308 Y132.228 E0.04911 ; skirt
G1 X163.699 Y133.054 E0.03218 ; skirt
G1 X163.006 Y133.821 E0.03243 ; skirt
G1 X158.215 Y138.608 E0.21235 ; skirt
G1 X156.807 Y139.736 E0.05657 ; skirt
G1 X139.810 Y149.621 E0.61650 ; skirt
G1 X138.238 Y150.313 E0.05384 ; skirt
G1 X136.566 Y150.737 E0.05409 ; skirt
G1 X135.030 Y150.877 E0.04836 ; skirt
G1 X128.062 Y150.879 E0.21849 ; skirt
G1 X108.125 Y150.704 E0.62512 ; skirt
G1 X107.047 Y150.612 E0.03392 ; skirt
G1 X105.984 Y150.409 E0.03392 ; skirt
G1 X104.949 Y150.096 E0.03392 ; skirt
G1 X103.951 Y149.678 E0.03392 ; skirt
G1 X99.012 Y147.159 E0.17385 ; skirt
G1 X97.648 Y146.280 E0.05085 ; skirt
G1 X80.096 Y131.513 E0.71919 ; skirt
G1 X78.874 Y130.038 E0.06005 ; skirt
G1 X77.941 Y128.357 E0.06030 ; skirt
G1 X75.984 Y122.826 E0.18395 ; skirt
G1 X75.602 Y121.283 E0.04986 ; skirt
G1 X75.460 Y119.568 E0.05393 ; skirt
G1 X75.460 Y92.657 E0.84378 ; skirt
G1 X75.590 Y91.065 E0.05011 ; skirt
G1 X76.074 Y89.187 E0.06080 ; skirt
G1 X82.909 Y70.770 E0.61594 ; skirt
G1 X83.403 Y69.658 E0.03816 ; skirt
G1 X84.024 Y68.611 E0.03816 ; skirt
G1 X85.018 Y67.366 E0.04997 ; skirt
G1 F9600
G1 X86.273 Y66.211 E-0.35431 ; wipe and retract
G1 F9600
G1 X87.824 Y65.026 E-0.40569 ; wipe and retract
G1 E-0.04000 F2100.00000 ; retract
G1 Z0.800 F12000.000 ; lift Z
G1 X127.463 Y60.039 F12000.000 ; move to first brim point
G1 Z0.200 F12000.000 ; restore layer Z
G1 E0.80000 F2100.00000 ; unretract
G1 F1800
G1 X128.383 Y59.522 E0.03308 ; brim
G1 X130.468 Y58.915 E0.06810 ; brim
G1 X142.270 Y58.827 E0.37005 ; brim
G1 X144.617 Y59.330 E0.07525 ; brim
G1 X146.689 Y60.417 E0.07336 ; brim
G1 X147.540 Y61.218 E0.03666 ; brim
G1 X149.184 Y61.651 E0.05331 ; brim
G1 X150.967 Y62.552 E0.06262 ; brim
G1 X152.741 Y64.133 E0.07453 ; brim
G1 X153.181 Y64.720 E0.02300 ; brim
G1 X154.419 Y65.520 E0.04619 ; brim
G1 X155.469 Y66.616 E0.04760 ; brim
G1 X156.167 Y67.581 E0.03732 ; brim
G1 X156.261 Y67.756 E0.00626 ; brim
G1 X157.489 Y69.011 E0.05504 ; brim
G1 X157.615 Y69.181 E0.00662 ; brim
G1 X158.597 Y69.798 E0.03638 ; brim
G1 X160.011 Y71.133 E0.06096 ; brim
G1 X160.866 Y72.496 E0.05045 ; brim
G1 X162.487 Y74.273 E0.07543 ; brim
G1 X163.594 Y76.687 E0.08325 ; brim
G1 X163.893 Y78.580 E0.06011 ; brim
G1 X163.861 Y93.008 E0.45238 ; brim
G1 X163.561 Y94.362 E0.04348 ; brim
G1 X165.597 Y95.676 E0.07595 ; brim
G1 X167.238 Y97.698 E0.08168 ; brim
G1 X168.224 Y100.143 E0.08265 ; brim
G1 X168.418 Y101.642 E0.04740 ; brim
G1 X168.296 Y119.050 E0.54582 ; brim
G1 X167.744 Y120.829 E0.05839 ; brim
G1 X166.935 Y122.276 E0.05197 ; brim
G1 X166.008 Y123.293 E0.04317 ; brim
G1 X165.711 Y124.672 E0.04422 ; brim
G1 X164.800 Y126.565 E0.06588 ; brim
G1 X164.272 Y127.214 E0.02622 ; brim
G1 X164.217 Y128.045 E0.02613 ; brim
G1 X163.834 Y129.435 E0.04521 ; brim
G1 X163.118 Y130.980 E0.05340 ; brim
G1 X161.293 Y133.096 E0.08761 ; brim
G1 X159.826 Y134.104 E0.05579 ; brim
G1 X159.723 Y134.242 E0.00543 ; brim
G1 X158.633 Y135.376 E0.04929 ; brim
G1 X158.473 Y135.504 E0.00644 ; brim
G1 X157.866 Y136.496 E0.03648 ; brim
G1 X156.697 Y137.697 E0.05252 ; brim
G1 X154.636 Y139.024 E0.07687 ; brim
G1 X152.278 Y139.705 E0.07695 ; brim
G1 X143.490 Y139.763 E0.27555 ; brim
G1 X143.461 Y141.776 E0.06313 ; brim
G1 X142.861 Y143.881 E0.06862 ; brim
G1 X141.675 Y145.837 E0.07173 ; brim
G1 X139.791 Y147.570 E0.08026 ; brim
G1 X136.898 Y148.833 E0.09896 ; brim
G1 X135.867 Y148.966 E0.03261 ; brim
G1 X134.885 Y148.978 E0.03080 ; brim
G1 X134.539 Y149.005 E0.01088 ; brim
G1 X128.468 Y149.005 E0.19033 ; brim
G1 X127.997 Y148.987 E0.01480 ; brim
G1 X127.749 Y149.005 E0.00777 ; brim
G1 X107.744 Y149.005 E0.62724 ; brim
G1 X104.578 Y148.117 E0.10310 ; brim
G1 X103.098 Y147.163 E0.05521 ; brim
G1 X102.465 Y146.566 E0.02730 ; brim
G1 X102.079 Y146.520 E0.01219 ; brim
G1 X100.570 Y146.042 E0.04964 ; brim
G1 X98.734 Y144.983 E0.06644 ; brim
G1 X97.188 Y143.502 E0.06713 ; brim
G1 X96.039 Y141.668 E0.06785 ; brim
G1 X95.264 Y138.655 E0.09757 ; brim
G1 X95.264 Y132.858 E0.18176 ; brim
G1 X94.057 Y132.837 E0.03782 ; brim
G1 X93.812 Y132.855 E0.00771 ; brim
G1 X90.760 Y132.855 E0.09568 ; brim
G1 X90.289 Y132.837 E0.01480 ; brim
G1 X90.041 Y132.855 E0.00777 ; brim
G1 X86.679 Y132.855 E0.10542 ; brim
G1 X83.112 Y131.741 E0.11717 ; brim
G1 X81.860 Y130.831 E0.04854 ; brim
G1 X80.752 Y129.729 E0.04900 ; brim
G1 X79.696 Y128.139 E0.05985 ; brim
G1 X78.895 Y125.745 E0.07913 ; brim
G1 X78.824 Y124.629 E0.03506 ; brim
G1 X78.453 Y124.141 E0.01921 ; brim
G1 X77.325 Y121.419 E0.09239 ; brim
G1 X77.164 Y120.009 E0.04450 ; brim
G1 X77.251 Y91.305 E0.90001 ; brim
G1 X77.754 Y89.516 E0.05826 ; brim
G1 X78.700 Y87.783 E0.06191 ; brim
G1 X80.350 Y86.044 E0.07516 ; brim
G1 X82.438 Y84.817 E0.07594 ; brim
G1 X83.960 Y84.395 E0.04950 ; brim
G1 X83.951 Y73.646 E0.33703 ; brim
G1 X85.141 Y69.951 E0.12171 ; brim
G1 X86.084 Y68.715 E0.04874 ; brim
G1 X87.203 Y67.626 E0.04896 ; brim
G1 X89.066 Y66.488 E0.06845 ; brim
G1 X90.946 Y65.893 E0.06183 ; brim
G1 X91.165 Y65.862 E0.00695 ; brim
G1 X91.503 Y65.546 E0.01449 ; brim
G1 X92.534 Y63.955 E0.05947 ; brim
G1 X93.839 Y62.797 E0.05470 ; brim
G1 X94.772 Y62.217 E0.03442 ; brim
G1 X96.485 Y60.528 E0.07545 ; brim
G1 X98.679 Y59.337 E0.07827 ; brim
G1 X100.897 Y58.844 E0.07125 ; brim
G1 X102.345 Y58.827 E0.04541 ; brim
G1 X102.735 Y58.444 E0.01714 ; brim
G1 X104.269 Y57.437 E0.05754 ; brim
G1 X107.456 Y56.517 E0.10401 ; brim
G1 X121.227 Y56.526 E0.43178 ; brim
G1 X123.367 Y56.974 E0.06855 ; brim
G1 X125.347 Y57.956 E0.06929 ; brim
G1 X127.109 Y59.522 E0.07393 ; brim
G1 X127.429 Y59.989 E0.01775 ; brim
G1 X127.343 Y60.542 F12000.000 ; move to first brim point
G1 F1800
G1 X128.511 Y59.877 E0.04213 ; brim
G1 X130.498 Y59.292 E0.06493 ; brim
G1 X142.252 Y59.204 E0.36856 ; brim
G1 X144.512 Y59.693 E0.07249 ; brim
G1 X146.489 Y60.738 E0.07012 ; brim
G1 X147.380 Y61.587 E0.03860 ; brim
G1 X147.533 Y61.605 E0.00482 ; brim
G1 X149.032 Y61.997 E0.04859 ; brim
G1 X150.774 Y62.877 E0.06120 ; brim
G1 X152.475 Y64.401 E0.07159 ; brim
G1 X152.919 Y65.001 E0.02340 ; brim
G1 X154.162 Y65.797 E0.04630 ; brim
G1 X155.171 Y66.848 E0.04567 ; brim
G1 X155.853 Y67.790 E0.03646 ; brim
G1 X155.952 Y67.980 E0.00672 ; brim
G1 X157.209 Y69.264 E0.05633 ; brim
G1 X157.352 Y69.461 E0.00763 ; brim
G1 X158.353 Y70.086 E0.03701 ; brim
G1 X159.705 Y71.354 E0.05810 ; brim
G1 X160.565 Y72.726 E0.05078 ; brim
G1 X162.157 Y74.458 E0.07375 ; brim
G1 X163.241 Y76.820 E0.08149 ; brim
G1 X163.515 Y78.594 E0.05629 ; brim
G1 X163.484 Y92.987 E0.45127 ; brim
G1 X163.134 Y94.538 E0.04986 ; brim
G1 X165.323 Y95.937 E0.08145 ; brim
G1 X166.927 Y97.914 E0.07983 ; brim
G1 X167.854 Y100.215 E0.07778 ; brim
G1 X168.041 Y101.653 E0.04545 ; brim
G1 X167.928 Y118.966 E0.54284 ; brim
G1 X167.405 Y120.662 E0.05567 ; brim
G1 X166.617 Y122.072 E0.05064 ; brim
G1 X165.660 Y123.114 E0.04437 ; brim
G1 X165.362 Y124.529 E0.04534 ; brim
G1 X164.470 Y126.380 E0.06442 ; brim
G1 X163.903 Y127.068 E0.02794 ; brim
G1 X163.848 Y127.964 E0.02816 ; brim
G1 X163.474 Y129.321 E0.04411 ; brim
G1 X162.815 Y130.754 E0.04948 ; brim
G1 X161.024 Y132.831 E0.08598 ; brim
G1 X159.560 Y133.829 E0.05556 ; brim
G1 X159.441 Y133.991 E0.00628 ; brim
G1 X158.371 Y135.104 E0.04841 ; brim
G1 X158.186 Y135.248 E0.00736 ; brim
G1 X157.580 Y136.249 E0.03669 ; brim
G1 X156.442 Y137.419 E0.05117 ; brim
G1 X154.504 Y138.670 E0.07233 ; brim
G1 X152.249 Y139.328 E0.07364 ; brim
G1 X143.116 Y139.388 E0.28636 ; brim
G1 X143.091 Y141.697 E0.07241 ; brim
G1 X142.506 Y143.753 E0.06701 ; brim
G1 X141.367 Y145.618 E0.06852 ; brim
G1 X139.610 Y147.237 E0.07491 ; brim
G1 X136.823 Y148.462 E0.09546 ; brim
G1 X135.830 Y148.591 E0.03140 ; brim
G1 X134.867 Y148.601 E0.03017 ; brim
G1 X134.531 Y148.628 E0.01058 ; brim
G1 X128.472 Y148.628 E0.18997 ; brim
G1 X127.989 Y148.609 E0.01515 ; brim
G1 X127.742 Y148.628 E0.00778 ; brim
G1 X107.770 Y148.628 E0.62620 ; brim
G1 X104.759 Y147.785 E0.09805 ; brim
G1 X103.318 Y146.856 E0.05375 ; brim
G1 X102.632 Y146.204 E0.02967 ; brim
G1 X102.174 Y146.154 E0.01445 ; brim
G1 X100.703 Y145.689 E0.04838 ; brim
G1 X98.979 Y144.695 E0.06240 ; brim
G1 X97.466 Y143.246 E0.06567 ; brim
G1 X96.374 Y141.494 E0.06473 ; brim
G1 X95.641 Y138.631 E0.09266 ; brim
G1 X95.641 Y132.477 E0.19297 ; brim
G1 X94.538 Y132.478 E0.03457 ; brim
G1 X94.052 Y132.459 E0.01524 ; brim
G1 X93.805 Y132.478 E0.00779 ; brim
G1 X90.764 Y132.478 E0.09534 ; brim
G1 X90.281 Y132.459 E0.01515 ; brim
G1 X90.034 Y132.478 E0.00778 ; brim
G1 X86.708 Y132.478 E0.10429 ; brim
G1 X83.309 Y131.418 E0.11163 ; brim
G1 X82.094 Y130.534 E0.04711 ; brim
G1 X81.031 Y129.476 E0.04703 ; brim
G1 X80.025 Y127.952 E0.05727 ; brim
G1 X79.261 Y125.651 E0.07602 ; brim
G1 X79.194 Y124.490 E0.03647 ; brim
G1 X78.791 Y123.972 E0.02057 ; brim
G1 X77.696 Y121.350 E0.08910 ; brim
G1 X77.541 Y119.999 E0.04262 ; brim
G1 X77.622 Y91.381 E0.89730 ; brim
G1 X78.096 Y89.678 E0.05545 ; brim
G1 X79.019 Y87.986 E0.06044 ; brim
G1 X80.605 Y86.324 E0.07200 ; brim
G1 X82.606 Y85.155 E0.07268 ; brim
G1 X84.337 Y84.684 E0.05624 ; brim
G1 X84.328 Y73.675 E0.34517 ; brim
G1 X85.461 Y70.154 E0.11598 ; brim
G1 X86.357 Y68.975 E0.04642 ; brim
G1 X87.451 Y67.910 E0.04786 ; brim
G1 X89.202 Y66.840 E0.06433 ; brim
G1 X91.041 Y66.258 E0.06051 ; brim
G1 X91.332 Y66.223 E0.00916 ; brim
G1 X91.795 Y65.789 E0.01988 ; brim
G1 X92.804 Y64.219 E0.05853 ; brim
G1 X94.077 Y63.090 E0.05337 ; brim
G1 X95.040 Y62.495 E0.03549 ; brim
G1 X95.125 Y62.384 E0.00436 ; brim
G1 X96.688 Y60.847 E0.06876 ; brim
G1 X98.835 Y59.681 E0.07660 ; brim
G1 X100.958 Y59.217 E0.06814 ; brim
G1 X102.504 Y59.203 E0.04845 ; brim
G1 X102.960 Y58.747 E0.02023 ; brim
G1 X104.402 Y57.791 E0.05427 ; brim
G1 X107.483 Y56.894 E0.10060 ; brim
G1 X121.207 Y56.903 E0.43031 ; brim
G1 X123.265 Y57.338 E0.06595 ; brim
G1 X125.155 Y58.282 E0.06625 ; brim
G1 X126.839 Y59.787 E0.07080 ; brim
G1 X127.310 Y60.492 E0.02659 ; brim
G1 X127.222 Y61.047 F12000.000 ; move to first brim point
G1 F1800
G1 X128.641 Y60.232 E0.05130 ; brim
G1 X130.528 Y59.669 E0.06174 ; brim
G1 X142.234 Y59.581 E0.36704 ; brim
G1 X144.405 Y60.056 E0.06970 ; brim
G1 X146.288 Y61.058 E0.06686 ; brim
G1 X147.214 Y61.952 E0.04037 ; brim
G1 X147.455 Y61.975 E0.00760 ; brim
G1 X148.880 Y62.342 E0.04614 ; brim
G1 X150.581 Y63.202 E0.05976 ; brim
G1 X152.207 Y64.668 E0.06863 ; brim
G1 X152.657 Y65.281 E0.02384 ; brim
G1 X153.907 Y66.075 E0.04644 ; brim
G1 X154.873 Y67.080 E0.04372 ; brim
G1 X155.538 Y67.998 E0.03555 ; brim
G1 X155.660 Y68.236 E0.00837 ; brim
G1 X155.790 Y68.338 E0.00518 ; brim
G1 X156.927 Y69.515 E0.05131 ; brim
G1 X157.088 Y69.741 E0.00871 ; brim
G1 X158.109 Y70.374 E0.03767 ; brim
G1 X159.429 Y71.612 E0.05672 ; brim
G1 X160.264 Y72.955 E0.04961 ; brim
G1 X161.827 Y74.643 E0.07210 ; brim
G1 X162.887 Y76.953 E0.07970 ; brim
G1 X163.138 Y78.607 E0.05247 ; brim
G1 X163.107 Y92.964 E0.45016 ; brim
G1 X162.707 Y94.714 E0.05627 ; brim
G1 X165.051 Y96.199 E0.08701 ; brim
G1 X166.589 Y98.082 E0.07623 ; brim
G1 X167.483 Y100.289 E0.07464 ; brim
G1 X167.663 Y101.664 E0.04348 ; brim
G1 X167.559 Y118.882 E0.53987 ; brim
G1 X167.066 Y120.496 E0.05292 ; brim
G1 X166.299 Y121.868 E0.04929 ; brim
G1 X165.312 Y122.935 E0.04557 ; brim
G1 X165.012 Y124.387 E0.04648 ; brim
G1 X164.141 Y126.195 E0.06293 ; brim
G1 X163.533 Y126.921 E0.02969 ; brim
G1 X163.479 Y127.884 E0.03023 ; brim
G1 X163.115 Y129.206 E0.04301 ; brim
G1 X162.512 Y130.529 E0.04557 ; brim
G1 X160.755 Y132.566 E0.08434 ; brim
G1 X159.292 Y133.555 E0.05539 ; brim
G1 X159.159 Y133.740 E0.00713 ; brim
G1 X158.110 Y134.831 E0.04746 ; brim
G1 X157.900 Y134.991 E0.00828 ; brim
G1 X157.294 Y136.002 E0.03694 ; brim
G1 X156.186 Y137.141 E0.04981 ; brim
G1 X154.371 Y138.316 E0.06782 ; brim
G1 X152.220 Y138.951 E0.07031 ; brim
G1 X142.743 Y139.013 E0.29714 ; brim
G1 X142.714 Y141.667 E0.08322 ; brim
G1 X142.151 Y143.623 E0.06382 ; brim
G1 X141.059 Y145.398 E0.06534 ; brim
G1 X139.429 Y146.905 E0.06961 ; brim
G1 X136.747 Y148.092 E0.09194 ; brim
G1 X135.793 Y148.215 E0.03018 ; brim
G1 X134.850 Y148.224 E0.02955 ; brim
G1 X134.523 Y148.251 E0.01029 ; brim
G1 X128.476 Y148.251 E0.18960 ; brim
G1 X127.982 Y148.231 E0.01550 ; brim
G1 X127.734 Y148.251 E0.00779 ; brim
G1 X107.796 Y148.251 E0.62516 ; brim
G1 X104.939 Y147.452 E0.09300 ; brim
G1 X103.537 Y146.549 E0.05228 ; brim
G1 X102.799 Y145.840 E0.03210 ; brim
G1 X102.268 Y145.788 E0.01672 ; brim
G1 X100.836 Y145.335 E0.04710 ; brim
G1 X99.222 Y144.406 E0.05839 ; brim
G1 X97.773 Y143.026 E0.06273 ; brim
G1 X96.710 Y141.319 E0.06306 ; brim
G1 X96.018 Y138.608 E0.08774 ; brim
G1 X96.018 Y132.099 E0.20408 ; brim
G1 X94.541 Y132.101 E0.04629 ; brim
G1 X94.045 Y132.082 E0.01558 ; brim
G1 X93.797 Y132.101 E0.00779 ; brim
G1 X90.768 Y132.101 E0.09498 ; brim
G1 X90.274 Y132.082 E0.01550 ; brim
G1 X90.026 Y132.101 E0.00779 ; brim
G1 X86.736 Y132.101 E0.10316 ; brim
G1 X83.505 Y131.095 E0.10610 ; brim
G1 X82.350 Y130.257 E0.04477 ; brim
G1 X81.311 Y129.222 E0.04595 ; brim
G1 X80.354 Y127.766 E0.05466 ; brim
G1 X79.627 Y125.558 E0.07289 ; brim
G1 X79.565 Y124.349 E0.03796 ; brim
G1 X79.128 Y123.800 E0.02197 ; brim
G1 X78.068 Y121.279 E0.08576 ; brim
G1 X77.918 Y119.989 E0.04073 ; brim
G1 X77.992 Y91.457 E0.89461 ; brim
G1 X78.437 Y89.839 E0.05262 ; brim
G1 X79.338 Y88.188 E0.05896 ; brim
G1 X80.858 Y86.605 E0.06882 ; brim
G1 X82.773 Y85.494 E0.06942 ; brim
G1 X84.463 Y85.041 E0.05486 ; brim
G1 X84.714 Y85.017 E0.00791 ; brim
G1 X84.705 Y73.704 E0.35471 ; brim
G1 X85.781 Y70.356 E0.11026 ; brim
G1 X86.631 Y69.236 E0.04409 ; brim
G1 X87.699 Y68.195 E0.04675 ; brim
G1 X89.337 Y67.193 E0.06022 ; brim
G1 X91.136 Y66.624 E0.05915 ; brim
G1 X91.496 Y66.585 E0.01135 ; brim
G1 X92.087 Y66.032 E0.02540 ; brim
G1 X93.074 Y64.484 E0.05757 ; brim
G1 X94.315 Y63.383 E0.05201 ; brim
G1 X95.302 Y62.777 E0.03631 ; brim
