; generated by Slic3r Prusa Edition 1.38.6-prusa3d-win64 on 2018-01-02 at 17:07:07

; 

; external perimeters extrusion width = 0.45mm
; perimeters extrusion width = 0.45mm
; infill extrusion width = 0.45mm
; solid infill extrusion width = 0.45mm
; top infill extrusion width = 0.40mm
; first layer extrusion width = 0.42mm

M107
M115 U3.1.1-RC4 ; tell printer latest fw version
M83  ; extruder relative mode
M104 S215 ; set extruder temp
M140 S60 ; set bed temp
M190 S60 ; wait for bed temp
M109 S215 ; wait for extruder temp
G28 W ; home all without mesh bed level
G80 ; mesh bed leveling
G1 Y-3.0 F1000.0 ; go outside print area
G92 E0.0
G1 X60.0 E9.0  F1000.0 ; intro line
G1 X100.0 E12.5  F1000.0 ; intro line
G92 E0.0
M900 K30; Filament gcode
G21 ; set units to millimeters
G90 ; use absolute coordinates
M83 ; use relative distances for extrusion
;BEFORE_LAYER_CHANGE
;0.2


G1 E-0.80000 F2100.00000
G1 Z0.600 F15000.000
;AFTER_LAYER_CHANGE
;0.2
G1 X145.131 Y116.516 F15000.000
G1 Z0.200 F15000.000
G1 E0.80000 F2100.00000
M204 S1000
G1 F1800
G1 X144.639 Y117.252 E0.02639
G1 X144.233 Y117.609 E0.01609
G1 X143.762 Y117.882 E0.01622
G1 X143.247 Y118.057 E0.01622
G1 X142.707 Y118.127 E0.01622
G1 X117.762 Y118.129 E0.74302
G1 X116.549 Y118.076 E0.03618
G1 X115.271 Y117.902 E0.03840
G1 X114.167 Y117.647 E0.03376
G1 X112.774 Y117.177 E0.04379
G1 X111.759 Y116.719 E0.03318
G1 X110.704 Y116.117 E0.03618
G1 X109.719 Y115.425 E0.03585
G1 X108.806 Y114.642 E0.03583
G1 X107.950 Y113.754 E0.03672
G1 X107.251 Y112.879 E0.03336
G1 X106.471 Y111.688 E0.04242
G1 X105.629 Y109.976 E0.05683
G1 X105.221 Y108.840 E0.03595
G1 X104.918 Y107.689 E0.03547
G1 X104.693 Y106.286 E0.04232
G1 X104.622 Y105.171 E0.03326
G1 X104.654 Y103.973 E0.03571
G1 X104.830 Y102.627 E0.04045
G1 X105.074 Y101.557 E0.03266
G1 X105.449 Y100.413 E0.03587
G1 X105.936 Y99.296 E0.03628
G1 X106.481 Y98.309 E0.03361
G1 X107.284 Y97.129 E0.04251
G1 X108.540 Y95.701 E0.05662
G1 X109.431 Y94.889 E0.03593
G1 X110.387 Y94.164 E0.03572
G1 X111.596 Y93.421 E0.04227
G1 X112.592 Y92.932 E0.03306
G1 X113.727 Y92.499 E0.03620
G1 X114.884 Y92.179 E0.03576
G1 X115.972 Y91.986 E0.03290
G1 X117.392 Y91.872 E0.04245
G1 X118.536 Y91.898 E0.03408
G1 X119.651 Y92.022 E0.03343
G1 X121.057 Y92.318 E0.04278
G1 X122.846 Y92.928 E0.05630
G1 X123.991 Y93.472 E0.03778
G1 X125.037 Y94.091 E0.03620
G1 X144.501 Y108.264 E0.71715
G1 X144.865 Y108.679 E0.01646
G1 X145.140 Y109.159 E0.01646
G1 X145.313 Y109.683 E0.01646
G1 X145.378 Y110.236 E0.01658
G1 X145.363 Y115.661 E0.16158
G1 X145.146 Y116.458 E0.02460
G1 F12000
G1 X144.639 Y117.252 E-0.15676
G1 F12000
G1 X144.233 Y117.609 E-0.08983
G1 F12000
G1 X143.762 Y117.882 E-0.09051
G1 F12000
G1 X143.247 Y118.057 E-0.09051
G1 F12000
G1 X142.707 Y118.127 E-0.09051
G1 F12000
G1 X141.252 Y118.127 E-0.24188
G1 E-0.04000 F2100.00000
G1 Z0.800 F15000.000
G1 X143.611 Y117.537 F15000.000
G1 Z0.200 F15000.000
G1 E0.80000 F2100.00000
G1 F1800
G1 X142.686 Y117.751 E0.02829
G1 X116.575 Y117.700 E0.77777
G1 X115.339 Y117.531 E0.03717
G1 X114.258 Y117.281 E0.03305
G1 X112.929 Y116.833 E0.04176
G1 X111.932 Y116.385 E0.03257
G1 X110.912 Y115.803 E0.03498
G1 X109.949 Y115.126 E0.03503
G1 X109.077 Y114.379 E0.03421
G1 X108.233 Y113.505 E0.03620
G1 X107.549 Y112.648 E0.03265
G1 X106.799 Y111.504 E0.04076
G1 X105.981 Y109.840 E0.05522
G1 X105.581 Y108.728 E0.03521
G1 X105.286 Y107.605 E0.03457
G1 X105.069 Y106.258 E0.04066
G1 X104.999 Y105.164 E0.03265
G1 X105.030 Y104.000 E0.03469
G1 X105.198 Y102.710 E0.03873
G1 X105.437 Y101.661 E0.03206
G1 X105.800 Y100.549 E0.03484
G1 X106.275 Y99.462 E0.03533
G1 X106.809 Y98.496 E0.03289
G1 X107.580 Y97.362 E0.04085
G1 X108.799 Y95.975 E0.05500
G1 X109.673 Y95.178 E0.03523
G1 X110.607 Y94.470 E0.03490
G1 X111.765 Y93.758 E0.04051
G1 X112.740 Y93.278 E0.03234
G1 X113.846 Y92.857 E0.03526
G1 X114.969 Y92.546 E0.03471
G1 X116.036 Y92.357 E0.03228
G1 X117.395 Y92.249 E0.04061
G1 X119.603 Y92.396 E0.06593
G1 X120.953 Y92.680 E0.04109
G1 X122.696 Y93.274 E0.05483
G1 X123.815 Y93.806 E0.03692
G1 X124.846 Y94.417 E0.03570
G1 X144.229 Y108.526 E0.71411
G1 X144.790 Y109.301 E0.02851
G1 X145.001 Y110.239 E0.02862
G1 X144.991 Y115.591 E0.15943
G1 X144.798 Y116.336 E0.02293
G1 X144.376 Y116.981 E0.02293
G1 X143.660 Y117.501 E0.02639
G1 F12000
G1 X142.686 Y117.751 E-0.16710
G1 F12000
G1 X139.120 Y117.744 E-0.59290
G1 E-0.04000 F2100.00000
G1 Z0.800 F15000.000
G1 X142.037 Y114.787 F15000.000
G1 Z0.200 F15000.000
G1 E0.80000 F2100.00000
G1 F1800
G1 X117.779 Y114.787 E0.72255
G1 X116.803 Y114.744 E0.02912
G1 X115.868 Y114.614 E0.02811
G1 X114.968 Y114.403 E0.02753
G1 X114.104 Y114.112 E0.02715
G1 X113.280 Y113.744 E0.02689
G1 X112.501 Y113.300 E0.02669
G1 X111.769 Y112.785 E0.02668
G1 X111.086 Y112.199 E0.02679
G1 X110.459 Y111.547 E0.02697
G1 X109.889 Y110.828 E0.02731
G1 X109.379 Y110.043 E0.02791
G1 X109.042 Y109.416 E0.02120
G1 X108.741 Y108.759 E0.02153
G1 X108.412 Y107.848 E0.02883
G1 X108.174 Y106.935 E0.02811
G1 X108.024 Y106.023 E0.02753
G1 X107.963 Y105.113 E0.02715
G1 X107.987 Y104.216 E0.02673
G1 X108.098 Y103.322 E0.02683
G1 X108.295 Y102.448 E0.02670
G1 X108.575 Y101.595 E0.02675
G1 X108.938 Y100.763 E0.02703
G1 X109.385 Y99.962 E0.02731
G1 X109.915 Y99.189 E0.02793
G1 X110.362 Y98.639 E0.02111
G1 X110.856 Y98.110 E0.02157
G1 X111.571 Y97.456 E0.02885
G1 X112.323 Y96.888 E0.02807
G1 X113.110 Y96.400 E0.02760
G1 X113.921 Y95.998 E0.02696
G1 X114.769 Y95.674 E0.02702
G1 X115.632 Y95.436 E0.02669
G1 X116.515 Y95.283 E0.02669
G1 X117.412 Y95.213 E0.02680
G1 X118.310 Y95.232 E0.02676
G1 X119.229 Y95.337 E0.02755
G1 X120.146 Y95.532 E0.02791
G1 X120.826 Y95.735 E0.02114
G1 X121.502 Y95.988 E0.02151
G1 X122.430 Y96.427 E0.03056
G1 X123.287 Y96.938 E0.02973
G1 X124.074 Y97.521 E0.02917
G1 X124.787 Y98.169 E0.02871
G1 X125.424 Y98.878 E0.02839
G1 X125.982 Y99.645 E0.02828
G1 X126.461 Y100.466 E0.02830
G1 X126.854 Y101.337 E0.02847
G1 X127.164 Y102.253 E0.02880
G1 X127.385 Y103.224 E0.02966
G1 X127.958 Y106.432 E0.09708
G1 X128.302 Y107.518 E0.03392
G1 X128.656 Y108.361 E0.02723
G1 X128.984 Y108.964 E0.02047
G1 X129.367 Y109.512 E0.01991
G1 X129.664 Y109.852 E0.01345
G1 X129.993 Y110.156 E0.01334
G1 X130.359 Y110.416 E0.01336
G1 X130.764 Y110.627 E0.01361
G1 X131.190 Y110.771 E0.01340
G1 X131.443 Y110.826 E0.00770
G1 X131.898 Y110.867 E0.01362
G1 X142.037 Y110.867 E0.30199
G1 X142.037 Y114.727 E0.11498
G1 X142.414 Y115.164 F15000.000
G1 F1800
G1 X117.771 Y115.164 E0.73404
G1 X116.768 Y115.120 E0.02990
G1 X115.799 Y114.985 E0.02915
G1 X114.865 Y114.766 E0.02858
G1 X113.967 Y114.463 E0.02821
G1 X113.109 Y114.081 E0.02798
G1 X112.299 Y113.619 E0.02777
G1 X111.537 Y113.083 E0.02775
G1 X110.827 Y112.474 E0.02787
G1 X110.175 Y111.795 E0.02805
G1 X109.583 Y111.049 E0.02838
G1 X109.054 Y110.235 E0.02890
G1 X108.704 Y109.584 E0.02202
G1 X108.391 Y108.901 E0.02236
G1 X108.052 Y107.960 E0.02981
G1 X107.805 Y107.013 E0.02914
G1 X107.649 Y106.066 E0.02860
G1 X107.586 Y105.121 E0.02822
G1 X107.611 Y104.188 E0.02779
G1 X107.726 Y103.258 E0.02793
G1 X107.931 Y102.348 E0.02779
G1 X108.222 Y101.460 E0.02782
G1 X108.600 Y100.596 E0.02810
G1 X109.064 Y99.764 E0.02837
G1 X109.612 Y98.963 E0.02891
G1 X110.077 Y98.391 E0.02196
G1 X110.590 Y97.842 E0.02239
G1 X111.329 Y97.166 E0.02982
G1 X112.109 Y96.577 E0.02912
G1 X112.927 Y96.070 E0.02865
G1 X113.770 Y95.652 E0.02803
G1 X114.651 Y95.316 E0.02809
G1 X115.550 Y95.067 E0.02777
G1 X116.468 Y94.908 E0.02777
G1 X117.401 Y94.836 E0.02788
G1 X118.336 Y94.855 E0.02784
G1 X119.290 Y94.964 E0.02862
G1 X120.239 Y95.167 E0.02890
G1 X120.946 Y95.377 E0.02197
G1 X121.649 Y95.640 E0.02237
G1 X122.607 Y96.094 E0.03158
G1 X123.496 Y96.624 E0.03082
G1 X124.313 Y97.229 E0.03029
G1 X125.055 Y97.903 E0.02984
G1 X125.717 Y98.640 E0.02953
G1 X126.299 Y99.439 E0.02942
G1 X126.796 Y100.293 E0.02945
G1 X127.206 Y101.199 E0.02960
G1 X127.528 Y102.151 E0.02993
G1 X127.754 Y103.149 E0.03050
G1 X128.325 Y106.342 E0.09661
G1 X128.656 Y107.388 E0.03268
G1 X128.996 Y108.197 E0.02615
G1 X129.305 Y108.766 E0.01928
G1 X129.664 Y109.280 E0.01868
G1 X129.935 Y109.589 E0.01223
G1 X130.231 Y109.863 E0.01202
G1 X130.556 Y110.094 E0.01187
G1 X130.912 Y110.279 E0.01196
G1 X131.291 Y110.407 E0.01191
G1 X131.500 Y110.453 E0.00637
G1 X131.915 Y110.490 E0.01242
G1 X142.414 Y110.490 E0.31272
G1 X142.414 Y115.104 E0.13745
G1 X142.018 Y115.109 F15000.000
G1 F12000
G1 X137.843 Y115.115 E-0.76000
G1 E-0.04000 F2100.00000
G1 Z0.800 F15000.000
G1 X141.924 Y111.755 F15000.000
G1 Z0.200 F15000.000
G1 E0.80000 F2100.00000
G1 F1800
G1 X141.319 Y111.150 E0.02590
G1 X140.777 Y111.150 E0.01639
G1 X141.754 Y112.127 E0.04182
G1 X141.754 Y112.669 E0.01639
G1 X140.235 Y111.150 E0.06500
G1 X139.694 Y111.150 E0.01639
G1 X141.754 Y113.210 E0.08818
G1 X141.754 Y113.752 E0.01639
G1 X139.152 Y111.150 E0.11136
G1 X138.610 Y111.150 E0.01639
G1 X141.754 Y114.294 E0.13454
G1 X141.754 Y114.505 E0.00637
G1 X141.423 Y114.505 E0.01002
G1 X138.068 Y111.150 E0.14355
G1 X137.527 Y111.150 E0.01639
G1 X140.881 Y114.505 E0.14355
G1 X140.340 Y114.505 E0.01639
G1 X136.985 Y111.150 E0.14355
G1 X136.443 Y111.150 E0.01639
G1 X139.798 Y114.505 E0.14355
G1 X139.256 Y114.505 E0.01639
G1 X135.902 Y111.150 E0.14355
G1 X135.360 Y111.150 E0.01639
G1 X138.715 Y114.505 E0.14355
G1 X138.173 Y114.505 E0.01639
G1 X134.818 Y111.150 E0.14355
G1 X134.276 Y111.150 E0.01639
G1 X137.631 Y114.505 E0.14355
G1 X137.089 Y114.505 E0.01639
G1 X133.735 Y111.150 E0.14355
G1 X133.193 Y111.150 E0.01639
G1 X136.548 Y114.505 E0.14355
G1 X136.006 Y114.505 E0.01639
G1 X132.651 Y111.150 E0.14355
G1 X132.110 Y111.150 E0.01639
G1 X135.464 Y114.505 E0.14355
G1 X134.923 Y114.505 E0.01639
G1 X131.536 Y111.118 E0.14490
G1 X131.115 Y111.044 E0.01296
G1 X130.821 Y110.945 E0.00939
G1 X134.381 Y114.505 E0.15233
G1 X133.839 Y114.505 E0.01639
G1 X115.187 Y95.852 E0.79816
G1 X114.769 Y95.977 E0.01318
G1 X133.297 Y114.505 E0.79284
G1 X132.756 Y114.505 E0.01639
G1 X114.377 Y96.126 E0.78644
G1 X113.989 Y96.280 E0.01263
G1 X132.214 Y114.505 E0.77987
G1 X131.672 Y114.505 E0.01639
G1 X113.627 Y96.459 E0.77219
G1 X113.265 Y96.639 E0.01223
G1 X131.131 Y114.505 E0.76450
G1 X130.589 Y114.505 E0.01639
G1 X112.929 Y96.845 E0.75568
G1 X112.595 Y97.052 E0.01191
G1 X130.047 Y114.505 E0.74682
G1 X129.505 Y114.505 E0.01639
G1 X112.277 Y97.276 E0.73721
G1 X111.969 Y97.510 E0.01170
G1 X128.964 Y114.505 E0.72724
G1 X128.422 Y114.505 E0.01639
G1 X111.668 Y97.750 E0.71694
G1 X111.385 Y98.009 E0.01160
G1 X127.880 Y114.505 E0.70586
G1 X127.339 Y114.505 E0.01639
G1 X111.102 Y98.268 E0.69478
G1 X110.837 Y98.545 E0.01159
G1 X126.797 Y114.505 E0.68295
G1 X126.255 Y114.505 E0.01639
G1 X110.575 Y98.825 E0.67096
G1 X110.332 Y99.123 E0.01165
G1 X125.713 Y114.505 E0.65818
G1 X125.172 Y114.505 E0.01639
G1 X110.094 Y99.427 E0.64519
G1 X109.874 Y99.748 E0.01179
G1 X124.630 Y114.505 E0.63143
G1 X124.088 Y114.505 E0.01639
G1 X109.654 Y100.070 E0.61768
G1 X109.456 Y100.414 E0.01201
G1 X123.547 Y114.505 E0.60294
G1 X123.005 Y114.505 E0.01639
G1 X109.263 Y100.762 E0.58805
G1 X109.087 Y101.129 E0.01229
G1 X122.463 Y114.505 E0.57238
G1 X121.921 Y114.505 E0.01639
G1 X108.922 Y101.505 E0.55625
G1 X108.773 Y101.898 E0.01270
G1 X121.380 Y114.505 E0.53946
G1 X120.838 Y114.505 E0.01639
G1 X108.639 Y102.306 E0.52200
G1 X108.521 Y102.730 E0.01331
G1 X120.296 Y114.505 E0.50387
G1 X119.755 Y114.505 E0.01639
G1 X108.422 Y103.172 E0.48495
G1 X108.344 Y103.636 E0.01423
G1 X119.213 Y114.505 E0.46510
G1 X118.671 Y114.505 E0.01639
G1 X108.284 Y104.118 E0.44447
G1 X108.259 Y104.634 E0.01565
G1 X118.129 Y114.505 E0.42237
G1 X117.578 Y114.495 E0.01667
G1 X108.250 Y105.167 E0.39916
G1 X108.289 Y105.747 E0.01759
G1 X117.012 Y114.470 E0.37326
G1 X116.402 Y114.403 E0.01855
G1 X108.367 Y106.367 E0.34384
G1 X108.492 Y107.034 E0.02053
G1 X115.755 Y114.297 E0.31078
G1 X115.047 Y114.131 E0.02198
G1 X108.684 Y107.767 E0.27231
G1 X108.989 Y108.615 E0.02726
G1 X114.231 Y113.856 E0.22428
G1 X113.408 Y113.491 E0.02723
G1 X113.213 Y113.381 E0.00677
G1 X109.096 Y109.263 E0.17619
G1 F12000
G1 X112.329 Y112.496 E-0.76000
G1 E-0.04000 F2100.00000
G1 Z0.800 F15000.000
G1 X109.847 Y110.556 F15000.000
G1 Z0.200 F15000.000
G1 E0.80000 F2100.00000
G1 F1800
G1 X112.339 Y113.048 E0.10663
G1 F12000
G1 X109.847 Y110.556 E-0.58586
G1 E-0.21414 F2100.00000
G1 Z0.800 F15000.000
G1 X115.473 Y95.597 F15000.000
G1 Z0.200 F15000.000
G1 E0.80000 F2100.00000
G1 F1800
G1 X128.449 Y108.573 E0.55525
G1 X128.037 Y107.619 E0.03143
G1 X116.066 Y95.648 E0.51228
G1 X116.527 Y95.568 E0.01418
G1 X127.786 Y106.826 E0.48177
G1 X127.683 Y106.500 E0.01034
G1 X127.613 Y106.112 E0.01193
G1 X117.028 Y95.527 E0.45296
G1 X117.542 Y95.499 E0.01557
G1 X127.496 Y105.452 E0.42593
G1 X127.378 Y104.793 E0.02027
G1 X118.095 Y95.510 E0.39721
G1 X118.686 Y95.559 E0.01794
G1 X127.260 Y104.133 E0.36688
G1 X127.142 Y103.474 E0.02027
G1 X119.312 Y95.643 E0.33507
G1 X120.001 Y95.791 E0.02131
G1 X126.995 Y102.785 E0.29931
G1 X126.892 Y102.330 E0.01412
G1 X126.795 Y102.043 E0.00916
G1 X120.766 Y96.014 E0.25797
G1 X121.392 Y96.248 E0.02022
G1 X121.676 Y96.383 E0.00952
G1 X126.788 Y101.495 E0.21874
G1 F12000
G1 X123.556 Y98.262 E-0.76000
G1 E-0.04000 F2100.00000
G1 Z0.800 F15000.000
G1 X126.366 Y100.531 F15000.000
G1 Z0.200 F15000.000
G1 E0.80000 F2100.00000
G1 F1800
G1 X122.349 Y96.513 E0.17190
M106 S255
;BEFORE_LAYER_CHANGE
;0.4


G1 F12000
G1 X125.581 Y99.746 E-0.76000
G1 E-0.04000 F2100.00000
G1 Z0.800 F15000.000
;AFTER_LAYER_CHANGE
;0.4
M104 S210 ; set temperature
G1 X145.131 Y116.516 F15000.000
G1 Z0.400 F15000.000
G1 E0.80000 F2100.00000
G1 F1173
G1 X144.639 Y117.252 E0.02639
G1 X144.233 Y117.609 E0.01609
G1 X143.762 Y117.882 E0.01622
G1 X143.247 Y118.057 E0.01622
G1 X142.707 Y118.127 E0.01622
G1 X117.762 Y118.129 E0.74302
G1 X116.549 Y118.076 E0.03618
G1 X115.271 Y117.902 E0.03840
G1 X114.167 Y117.647 E0.03376
G1 X112.774 Y117.177 E0.04379
G1 X111.759 Y116.719 E0.03318
G1 X110.704 Y116.117 E0.03618
G1 X109.719 Y115.425 E0.03585
G1 X108.806 Y114.642 E0.03583
G1 X107.950 Y113.754 E0.03672
G1 X107.251 Y112.879 E0.03336
G1 X106.471 Y111.688 E0.04242
G1 X105.629 Y109.976 E0.05683
G1 X105.221 Y108.840 E0.03595
G1 X104.918 Y107.689 E0.03547
G1 X104.693 Y106.286 E0.04232
G1 X104.622 Y105.171 E0.03326
G1 X104.654 Y103.973 E0.03571
G1 X104.830 Y102.627 E0.04045
G1 X105.074 Y101.557 E0.03266
G1 X105.449 Y100.413 E0.03587
G1 X105.936 Y99.296 E0.03628
G1 X106.481 Y98.309 E0.03361
G1 X107.284 Y97.129 E0.04251
G1 X108.540 Y95.701 E0.05662
G1 X109.431 Y94.889 E0.03593
G1 X110.387 Y94.164 E0.03572
G1 X111.596 Y93.421 E0.04227
G1 X112.592 Y92.932 E0.03306
G1 X113.727 Y92.499 E0.03620
G1 X114.884 Y92.179 E0.03576
G1 X115.972 Y91.986 E0.03290
G1 X117.392 Y91.872 E0.04245
G1 X118.536 Y91.898 E0.03408
G1 X119.651 Y92.022 E0.03343
G1 X121.057 Y92.318 E0.04278
G1 X122.846 Y92.928 E0.05630
G1 X123.991 Y93.472 E0.03778
G1 X125.037 Y94.091 E0.03620
G1 X144.501 Y108.264 E0.71715
G1 X144.865 Y108.679 E0.01646
G1 X145.140 Y109.159 E0.01646
G1 X145.313 Y109.683 E0.01646
G1 X145.378 Y110.236 E0.01658
G1 X145.363 Y115.661 E0.16158
G1 X145.146 Y116.458 E0.02460
G1 F12000
G1 X144.639 Y117.252 E-0.15676
G1 F12000
G1 X144.233 Y117.609 E-0.08983
G1 F12000
G1 X143.762 Y117.882 E-0.09051
G1 F12000
G1 X143.247 Y118.057 E-0.09051
G1 F12000
G1 X142.707 Y118.127 E-0.09051
G1 F12000
G1 X141.252 Y118.127 E-0.24188
G1 E-0.04000 F2100.00000
G1 Z1.000 F15000.000
G1 X141.992 Y114.742 F15000.000
G1 Z0.400 F15000.000
G1 E0.80000 F2100.00000
M204 S800
G1 F1407
G1 X117.780 Y114.742 E0.77856
G1 X116.807 Y114.699 E0.03134
G1 X115.876 Y114.569 E0.03021
G1 X114.980 Y114.360 E0.02959
G1 X114.121 Y114.070 E0.02917
G1 X113.300 Y113.704 E0.02889
G1 X112.526 Y113.262 E0.02867
G1 X111.796 Y112.750 E0.02866
G1 X111.117 Y112.167 E0.02878
G1 X110.493 Y111.517 E0.02898
G1 X109.926 Y110.802 E0.02935
G1 X109.417 Y110.020 E0.03000
G1 X109.082 Y109.396 E0.02278
G1 X108.782 Y108.741 E0.02314
G1 X108.455 Y107.835 E0.03099
G1 X108.218 Y106.926 E0.03022
G1 X108.068 Y106.018 E0.02959
G1 X108.009 Y105.112 E0.02917
