; generated by Slic3r Prusa Edition 1.38.6-prusa3d-win64 on 2018-01-02 at 16:51:40

; 

; external perimeters extrusion width = 0.45mm
; perimeters extrusion width = 0.45mm
; infill extrusion width = 0.45mm
; solid infill extrusion width = 0.45mm
; top infill extrusion width = 0.40mm
; first layer extrusion width = 0.42mm

M107
M115 U3.1.1-RC4 ; tell printer latest fw version
M83  ; extruder relative mode
M104 S215 ; set extruder temp
M140 S60 ; set bed temp
M190 S60 ; wait for bed temp
M109 S215 ; wait for extruder temp
G28 W ; home all without mesh bed level
G80 ; mesh bed leveling
G1 Y-3.0 F1000.0 ; go outside print area
G92 E0.0
G1 X60.0 E9.0  F1000.0 ; intro line
G1 X100.0 E12.5  F1000.0 ; intro line
G92 E0.0
M900 K30; Filament gcode
G21 ; set units to millimeters
G90 ; use absolute coordinates
M83 ; use relative distances for extrusion
;BEFORE_LAYER_CHANGE
;0.2


G1 E-0.80000 F2100.00000
G1 Z0.600 F15000.000
;AFTER_LAYER_CHANGE
;0.2
G1 X80.915 Y99.515 F15000.000
G1 Z0.200 F15000.000
G1 E0.80000 F2100.00000
M204 S1000
G1 F1800
G1 X81.421 Y99.236 E0.01720
G1 X124.123 Y82.209 E1.36933
G1 X125.005 Y82.042 E0.02673
G1 X125.875 Y82.209 E0.02639
G1 X168.578 Y99.236 E1.36935
G1 X169.084 Y99.514 E0.01720
G1 X169.611 Y100.038 E0.02215
G1 X187.153 Y124.185 E0.88902
G1 X187.451 Y124.833 E0.02125
G1 X187.544 Y125.540 E0.02125
G1 X187.422 Y126.243 E0.02125
G1 X187.096 Y126.881 E0.02136
G1 X186.729 Y127.283 E0.01619
G1 X186.278 Y127.593 E0.01630
G1 X185.772 Y127.790 E0.01619
G1 X185.230 Y127.867 E0.01630
G1 X144.996 Y127.958 E1.19844
G1 X64.801 Y127.868 E2.38874
G1 X64.254 Y127.797 E0.01641
G1 X63.735 Y127.600 E0.01653
G1 X63.279 Y127.291 E0.01641
G1 X62.905 Y126.881 E0.01653
G1 X62.579 Y126.247 E0.02125
G1 X62.456 Y125.544 E0.02125
G1 X62.547 Y124.837 E0.02125
G1 X62.847 Y124.185 E0.02136
G1 X80.388 Y100.039 E0.88898
G1 X80.873 Y99.557 E0.02036
G1 F12000
G1 X81.421 Y99.236 E-0.10564
G1 F12000
G1 X85.077 Y97.778 E-0.65436
G1 E-0.04000 F2100.00000
G1 Z0.800 F15000.000
G1 X83.388 Y102.383 F15000.000
G1 Z0.200 F15000.000
G1 E0.80000 F2100.00000
G1 F1800
G1 X86.110 Y102.717 E0.08171
G1 X93.421 Y102.943 E0.21787
G1 X100.705 Y102.268 E0.21788
G1 X104.314 Y101.591 E0.10937
G1 X105.885 Y101.400 E0.04713
G1 X108.886 Y100.742 E0.09151
G1 X111.791 Y99.718 E0.09177
G1 X114.549 Y98.345 E0.09177
G1 X117.117 Y96.643 E0.09177
G1 X119.457 Y94.639 E0.09177
G1 X121.532 Y92.362 E0.09177
G1 X123.312 Y89.848 E0.09177
G1 X124.766 Y87.140 E0.09154
G1 X125.013 Y86.548 E0.01910
G1 X125.917 Y88.513 E0.06442
G1 X127.539 Y91.132 E0.09177
G1 X129.470 Y93.533 E0.09177
G1 X131.682 Y95.677 E0.09177
G1 X134.141 Y97.534 E0.09177
G1 X136.809 Y99.074 E0.09177
G1 X139.646 Y100.275 E0.09177
G1 X142.609 Y101.118 E0.09177
G1 X152.922 Y102.717 E0.31086
G1 X160.242 Y102.943 E0.21814
G1 X166.592 Y102.358 E0.18994
G1 X166.544 Y102.525 E0.00517
G1 X166.205 Y104.337 E0.05491
G1 X166.091 Y106.186 E0.05516
G1 X166.205 Y108.034 E0.05516
G1 X166.546 Y109.855 E0.05516
G1 X167.107 Y111.620 E0.05516
G1 X167.881 Y113.302 E0.05517
G1 X168.857 Y114.877 E0.05518
G1 X170.627 Y116.987 E0.08204
G1 X173.585 Y119.855 E0.12274
G1 X176.879 Y122.342 E0.12292
G1 X180.451 Y124.404 E0.12286
G1 X181.127 Y124.696 E0.02193
G1 X145.669 Y124.789 E1.05618
G1 X145.312 Y123.370 E0.04359
G1 X144.777 Y121.990 E0.04406
G1 X144.077 Y120.687 E0.04406
G1 X143.223 Y119.480 E0.04406
G1 X142.226 Y118.386 E0.04406
G1 X141.103 Y117.424 E0.04406
G1 X139.870 Y116.607 E0.04406
G1 X138.545 Y115.947 E0.04406
G1 X137.150 Y115.456 E0.04406
G1 X136.494 Y115.312 E0.02001
G1 X135.705 Y115.139 E0.02405
G1 X134.232 Y115.003 E0.04406
G1 X132.754 Y115.048 E0.04406
G1 X131.295 Y115.275 E0.04396
G1 X129.848 Y115.669 E0.04466
G1 X128.442 Y120.943 E0.16260
G1 X127.955 Y119.029 E0.05885
G1 X122.045 Y119.029 E0.17606
G1 X121.558 Y120.943 E0.05885
G1 X120.155 Y115.681 E0.16223
G1 X119.414 Y115.453 E0.02308
G1 X117.981 Y115.139 E0.04371
G1 X116.508 Y115.003 E0.04406
G1 X115.029 Y115.048 E0.04406
G1 X113.568 Y115.275 E0.04406
G1 X112.145 Y115.680 E0.04406
G1 X110.782 Y116.257 E0.04406
G1 X109.501 Y116.996 E0.04406
G1 X108.321 Y117.888 E0.04406
G1 X107.259 Y118.918 E0.04406
G1 X106.331 Y120.070 E0.04406
G1 X105.553 Y121.328 E0.04406
G1 X104.934 Y122.672 E0.04406
G1 X104.487 Y124.078 E0.04396
G1 X104.345 Y124.789 E0.02159
G1 X68.822 Y124.696 E1.05812
G1 X71.366 Y123.429 E0.08466
G1 X74.806 Y121.149 E0.12292
G1 X77.940 Y118.464 E0.12292
G1 X80.710 Y115.426 E0.12247
G1 X81.143 Y114.876 E0.02083
G1 X81.660 Y114.096 E0.02787
G1 X82.532 Y112.473 E0.05490
G1 X83.201 Y110.746 E0.05516
G1 X83.653 Y108.950 E0.05516
G1 X83.880 Y107.112 E0.05516
G1 X83.880 Y105.260 E0.05516
G1 X83.652 Y103.421 E0.05519
G1 X83.403 Y102.441 E0.03013
G1 F12000
G1 X86.110 Y102.717 E-0.45250
G1 F12000
G1 X87.959 Y102.774 E-0.30750
G1 E-0.04000 F2100.00000
G1 Z0.800 F15000.000
G1 X130.157 Y115.976 F15000.000
G1 Z0.200 F15000.000
G1 E0.80000 F2100.00000
G1 F1800
G1 X128.433 Y122.440 E0.19927
G1 X127.662 Y119.406 E0.09325
G1 X122.338 Y119.406 E0.15859
G1 X121.567 Y122.440 E0.09325
G1 X119.844 Y115.980 E0.19914
G1 X119.318 Y115.818 E0.01639
G1 X117.923 Y115.513 E0.04255
G1 X116.496 Y115.380 E0.04268
G1 X115.064 Y115.424 E0.04268
G1 X113.648 Y115.644 E0.04268
G1 X112.270 Y116.036 E0.04268
G1 X110.951 Y116.595 E0.04268
G1 X109.710 Y117.311 E0.04268
G1 X108.567 Y118.175 E0.04268
G1 X107.538 Y119.172 E0.04268
G1 X107.131 Y119.677 E0.01932
G1 X106.640 Y120.288 E0.02336
G1 X105.885 Y121.507 E0.04268
G1 X105.287 Y122.808 E0.04268
G1 X104.853 Y124.172 E0.04264
G1 X104.654 Y125.167 E0.03020
G1 X67.150 Y125.068 E1.11713
G1 X67.529 Y124.918 E0.01213
G1 X71.177 Y123.102 E0.12141
G1 X74.579 Y120.848 E0.12153
G1 X77.677 Y118.193 E0.12153
G1 X80.422 Y115.182 E0.12137
G1 X80.837 Y114.655 E0.01997
G1 X81.336 Y113.903 E0.02690
G1 X82.189 Y112.315 E0.05368
G1 X82.841 Y110.631 E0.05378
G1 X83.281 Y108.880 E0.05378
G1 X83.503 Y107.089 E0.05378
G1 X83.503 Y105.283 E0.05378
G1 X83.281 Y103.491 E0.05379
G1 X82.886 Y101.941 E0.04764
G1 X86.139 Y102.341 E0.09763
G1 X93.410 Y102.565 E0.21666
G1 X100.653 Y101.894 E0.21667
G1 X104.256 Y101.218 E0.10921
G1 X105.821 Y101.027 E0.04696
G1 X108.782 Y100.379 E0.09029
G1 X111.644 Y99.370 E0.09038
G1 X114.360 Y98.018 E0.09038
G1 X115.506 Y97.259 E0.04092
G1 X116.890 Y96.342 E0.04946
G1 X119.194 Y94.368 E0.09038
G1 X121.238 Y92.125 E0.09038
G1 X122.991 Y89.649 E0.09038
G1 X124.425 Y86.978 E0.09030
G1 X124.996 Y85.610 E0.04417
G1 X126.250 Y88.334 E0.08934
G1 X127.847 Y90.914 E0.09038
G1 X129.749 Y93.278 E0.09038
G1 X131.928 Y95.390 E0.09038
G1 X134.349 Y97.219 E0.09038
G1 X136.977 Y98.736 E0.09038
G1 X139.771 Y99.919 E0.09038
G1 X142.690 Y100.749 E0.09038
G1 X152.957 Y102.341 E0.30947
G1 X160.231 Y102.565 E0.21676
G1 X167.107 Y101.932 E0.20568
G1 X166.911 Y102.612 E0.02106
G1 X166.580 Y104.384 E0.05369
G1 X166.469 Y106.186 E0.05378
G1 X166.580 Y107.988 E0.05378
G1 X166.912 Y109.763 E0.05378
G1 X167.459 Y111.483 E0.05378
G1 X168.214 Y113.123 E0.05378
G1 X169.163 Y114.655 E0.05368
G1 X170.904 Y116.729 E0.08066
G1 X173.831 Y119.568 E0.12147
G1 X177.087 Y122.027 E0.12153
G1 X180.620 Y124.067 E0.12151
G1 X182.943 Y125.068 E0.07534
G1 X145.351 Y125.167 E1.11975
G1 X145.300 Y124.869 E0.00899
G1 X144.952 Y123.484 E0.04254
G1 X144.434 Y122.148 E0.04268
G1 X143.756 Y120.886 E0.04268
G1 X142.928 Y119.716 E0.04268
G1 X141.963 Y118.658 E0.04268
G1 X140.875 Y117.725 E0.04268
G1 X139.681 Y116.934 E0.04268
G1 X138.398 Y116.295 E0.04268
G1 X137.047 Y115.819 E0.04268
G1 X135.647 Y115.513 E0.04268
G1 X134.220 Y115.380 E0.04268
G1 X132.788 Y115.424 E0.04268
G1 X131.374 Y115.644 E0.04264
G1 X130.215 Y115.960 E0.03578
G1 X129.759 Y115.934 F15000.000
G1 F12000
G1 X129.003 Y120.368 E-0.76000
G1 E-0.04000 F2100.00000
G1 Z0.800 F15000.000
G1 X127.684 Y118.915 F15000.000
G1 Z0.200 F15000.000
G1 E0.80000 F2100.00000
G1 F1800
G1 X109.570 Y100.801 E0.76350
G1 X109.175 Y100.940 E0.01247
G1 X126.981 Y118.746 E0.75049
G1 X126.447 Y118.746 E0.01590
G1 X108.761 Y101.059 E0.74547
G1 X108.323 Y101.155 E0.01335
G1 X125.914 Y118.746 E0.74143
G1 X125.380 Y118.746 E0.01590
G1 X107.885 Y101.251 E0.73739
G1 X107.448 Y101.347 E0.01335
G1 X124.847 Y118.746 E0.73335
G1 X124.313 Y118.746 E0.01590
G1 X107.010 Y101.443 E0.72931
G1 X106.572 Y101.538 E0.01335
G1 X123.779 Y118.746 E0.72527
G1 X123.246 Y118.746 E0.01590
G1 X120.545 Y116.045 E0.11385
G1 X120.739 Y116.772 E0.02244
G1 X122.712 Y118.746 E0.08319
G1 X122.179 Y118.746 E0.01590
G1 X120.932 Y117.500 E0.05252
G1 X121.126 Y118.227 E0.02244
G1 X121.788 Y118.889 E0.02790
G1 X121.680 Y119.315 E0.01308
G1 X121.320 Y118.955 E0.01517
G1 X121.514 Y119.682 E0.02244
G1 X121.712 Y119.880 E0.00832
G1 F12000
G1 X121.514 Y119.682 E-0.04638
G1 F12000
G1 X121.320 Y118.955 E-0.12518
G1 F12000
G1 X121.680 Y119.315 E-0.08459
G1 F12000
G1 X121.788 Y118.889 E-0.07298
G1 F12000
G1 X121.126 Y118.227 E-0.15563
G1 F12000
G1 X120.932 Y117.500 E-0.12518
G1 F12000
G1 X121.571 Y118.138 E-0.15006
G1 E-0.04000 F2100.00000
G1 Z0.800 F15000.000
G1 X120.021 Y115.521 F15000.000
G1 Z0.200 F15000.000
G1 E0.80000 F2100.00000
G1 F1800
G1 X106.134 Y101.634 E0.58533
G1 X105.676 Y101.710 E0.01384
G1 X119.050 Y115.084 E0.56370
G1 X118.367 Y114.934 E0.02084
G1 X105.201 Y101.768 E0.55495
G1 X104.725 Y101.826 E0.01428
G1 X117.731 Y114.832 E0.54820
G1 X117.143 Y114.778 E0.01760
G1 X104.256 Y101.890 E0.54320
G1 X103.806 Y101.974 E0.01363
G1 X116.555 Y114.723 E0.53736
G1 X116.033 Y114.734 E0.01557
G1 X103.357 Y102.058 E0.53428
G1 X102.907 Y102.143 E0.01363
G1 X115.515 Y114.750 E0.53141
G1 X114.998 Y114.767 E0.01542
G1 X102.458 Y102.227 E0.52855
G1 X102.009 Y102.311 E0.01363
G1 X114.536 Y114.839 E0.52803
G1 X114.075 Y114.910 E0.01393
G1 X101.559 Y102.395 E0.52750
G1 X101.110 Y102.479 E0.01363
G1 X113.613 Y114.982 E0.52697
G1 X113.187 Y115.090 E0.01310
G1 X100.653 Y102.556 E0.52826
G1 X100.165 Y102.602 E0.01462
G1 X112.771 Y115.208 E0.53133
G1 X112.356 Y115.326 E0.01287
G1 X99.677 Y102.647 E0.53441
G1 X99.188 Y102.692 E0.01462
G1 X111.951 Y115.455 E0.53793
G1 X111.576 Y115.614 E0.01213
G1 X98.700 Y102.737 E0.54272
G1 X98.212 Y102.783 E0.01462
G1 X111.201 Y115.772 E0.54750
G1 X110.826 Y115.931 E0.01213
G1 X97.723 Y102.828 E0.55228
G1 X97.235 Y102.873 E0.01462
G1 X110.472 Y116.110 E0.55790
G1 X110.133 Y116.305 E0.01164
G1 X96.747 Y102.918 E0.56422
G1 X96.258 Y102.964 E0.01462
G1 X109.795 Y116.500 E0.57055
G1 X109.457 Y116.695 E0.01164
G1 X95.770 Y103.009 E0.57687
G1 X95.282 Y103.054 E0.01462
G1 X109.141 Y116.914 E0.58416
G1 X108.837 Y117.143 E0.01135
G1 X94.794 Y103.099 E0.59193
G1 X94.305 Y103.145 E0.01462
G1 X108.533 Y117.373 E0.59970
G1 X108.229 Y117.602 E0.01135
G1 X93.817 Y103.190 E0.60747
G1 X93.316 Y103.222 E0.01497
G1 X107.948 Y117.855 E0.61676
G1 X107.677 Y118.118 E0.01125
G1 X92.765 Y103.205 E0.62854
G1 X92.214 Y103.188 E0.01642
G1 X107.407 Y118.380 E0.64033
G1 X107.136 Y118.643 E0.01125
G1 X91.664 Y103.171 E0.65212
G1 X91.113 Y103.154 E0.01642
G1 X106.887 Y118.928 E0.66485
G1 X106.649 Y119.224 E0.01131
G1 X90.563 Y103.137 E0.67803
G1 X90.012 Y103.120 E0.01642
G1 X106.411 Y119.519 E0.69120
G1 X106.173 Y119.815 E0.01131
G1 X89.462 Y103.103 E0.70438
G1 X88.911 Y103.086 E0.01642
G1 X105.959 Y120.134 E0.71854
G1 X105.755 Y120.464 E0.01155
G1 X88.361 Y103.070 E0.73315
G1 X87.810 Y103.053 E0.01642
G1 X105.551 Y120.793 E0.74775
G1 X105.347 Y121.123 E0.01155
G1 X87.260 Y103.036 E0.76236
G1 X86.709 Y103.019 E0.01642
G1 X105.171 Y121.481 E0.77815
G1 X105.003 Y121.846 E0.01199
G1 X86.159 Y103.002 E0.79427
G1 X85.558 Y102.934 E0.01803
G1 X104.835 Y122.211 E0.81251
G1 X104.667 Y122.578 E0.01200
G1 X84.949 Y102.859 E0.83110
G1 X84.341 Y102.785 E0.01827
G1 X104.539 Y122.983 E0.85132
G1 X104.410 Y123.387 E0.01266
G1 X83.774 Y102.751 E0.86980
G1 X83.941 Y103.452 E0.02149
G1 X104.281 Y123.792 E0.85730
G1 X104.171 Y124.216 E0.01304
G1 X84.017 Y104.061 E0.84948
G1 X84.092 Y104.670 E0.01829
G1 X103.927 Y124.505 E0.83601
G1 X103.392 Y124.504 E0.01594
G1 X84.163 Y105.275 E0.81047
G1 X84.163 Y105.808 E0.01590
G1 X102.857 Y124.502 E0.78792
G1 X102.322 Y124.501 E0.01594
G1 X84.163 Y106.342 E0.76537
G1 X84.163 Y106.875 E0.01590
G1 X101.787 Y124.499 E0.74282
G1 X101.252 Y124.498 E0.01594
G1 X84.132 Y107.378 E0.72157
G1 X84.073 Y107.853 E0.01426
G1 X100.717 Y124.496 E0.70150
G1 X100.182 Y124.495 E0.01594
G1 X84.015 Y108.328 E0.68143
G1 X83.956 Y108.803 E0.01426
G1 X99.647 Y124.494 E0.66136
G1 X99.112 Y124.492 E0.01594
G1 X83.869 Y109.249 E0.64248
G1 X83.762 Y109.676 E0.01310
G1 X98.577 Y124.491 E0.62445
G1 X98.042 Y124.489 E0.01594
G1 X83.654 Y110.102 E0.60642
G1 X83.547 Y110.528 E0.01310
G1 X97.507 Y124.488 E0.58839
G1 X96.972 Y124.487 E0.01594
G1 X83.428 Y110.943 E0.57087
G1 X83.279 Y111.327 E0.01229
G1 X96.437 Y124.485 E0.55460
G1 X95.902 Y124.484 E0.01594
G1 X83.130 Y111.712 E0.53833
G1 X82.981 Y112.096 E0.01229
G1 X95.367 Y124.482 E0.52206
G1 X94.832 Y124.481 E0.01594
G1 X82.832 Y112.481 E0.50579
G1 X82.656 Y112.839 E0.01188
G1 X94.297 Y124.480 E0.49065
G1 X93.762 Y124.478 E0.01594
G1 X82.470 Y113.186 E0.47596
G1 X82.283 Y113.533 E0.01174
G1 X93.227 Y124.477 E0.46126
G1 X92.692 Y124.475 E0.01594
G1 X82.097 Y113.880 E0.44657
G1 X81.911 Y114.227 E0.01174
G1 X92.157 Y124.474 E0.43188
G1 X91.622 Y124.473 E0.01594
G1 X81.699 Y114.549 E0.41825
G1 X81.486 Y114.870 E0.01147
G1 X91.087 Y124.471 E0.40467
G1 X90.552 Y124.470 E0.01594
G1 X81.263 Y115.181 E0.39153
G1 X81.028 Y115.479 E0.01132
G1 X90.017 Y124.468 E0.37888
G1 X89.482 Y124.467 E0.01594
G1 X80.782 Y115.767 E0.36670
G1 X80.528 Y116.046 E0.01126
G1 X88.947 Y124.466 E0.35488
G1 X88.412 Y124.464 E0.01594
G1 X80.273 Y116.325 E0.34306
G1 X80.019 Y116.604 E0.01126
G1 X87.877 Y124.463 E0.33123
G1 X87.342 Y124.461 E0.01594
G1 X79.764 Y116.883 E0.31941
G1 X79.510 Y117.162 E0.01126
G1 X86.807 Y124.460 E0.30758
G1 X86.272 Y124.459 E0.01594
G1 X79.255 Y117.442 E0.29576
G1 X79.001 Y117.721 E0.01126
G1 X85.737 Y124.457 E0.28394
G1 X85.202 Y124.456 E0.01594
G1 X78.746 Y118.000 E0.27211
G1 X78.492 Y118.279 E0.01126
G1 X84.667 Y124.454 E0.26029
G1 X84.132 Y124.453 E0.01594
G1 X78.237 Y118.558 E0.24846
G1 X77.963 Y118.817 E0.01125
G1 X83.597 Y124.452 E0.23748
G1 X83.062 Y124.450 E0.01594
G1 X77.676 Y119.063 E0.22705
G1 X77.388 Y119.310 E0.01128
G1 X82.527 Y124.449 E0.21661
G1 X81.992 Y124.447 E0.01594
G1 X77.101 Y119.556 E0.20617
G1 X76.814 Y119.802 E0.01128
G1 X81.457 Y124.446 E0.19574
G1 X80.922 Y124.445 E0.01594
G1 X76.526 Y120.048 E0.18530
G1 X76.239 Y120.294 E0.01128
G1 X80.388 Y124.443 E0.17486
G1 X79.853 Y124.442 E0.01594
G1 X75.951 Y120.541 E0.16443
G1 X75.664 Y120.787 E0.01128
G1 X79.318 Y124.440 E0.15399
G1 X78.783 Y124.439 E0.01594
G1 X75.377 Y121.033 E0.14355
G1 X75.089 Y121.279 E0.01128
G1 X78.248 Y124.438 E0.13312
G1 X77.713 Y124.436 E0.01594
G1 X74.781 Y121.505 E0.12354
G1 X74.461 Y121.718 E0.01147
G1 X77.178 Y124.435 E0.11452
G1 X76.643 Y124.433 E0.01594
G1 X74.140 Y121.930 E0.10550
G1 X73.819 Y122.143 E0.01147
G1 X76.108 Y124.432 E0.09648
G1 X75.573 Y124.431 E0.01594
G1 X73.498 Y122.356 E0.08745
G1 X73.177 Y122.568 E0.01147
G1 X75.038 Y124.429 E0.07843
G1 X74.503 Y124.428 E0.01594
G1 X72.856 Y122.781 E0.06941
G1 X72.535 Y122.994 E0.01147
G1 X73.968 Y124.426 E0.06039
G1 X73.433 Y124.425 E0.01594
G1 X72.214 Y123.206 E0.05137
G1 X71.893 Y123.419 E0.01147
G1 X72.898 Y124.424 E0.04234
G1 X72.363 Y124.422 E0.01594
G1 X71.572 Y123.632 E0.03332
G1 X71.223 Y123.816 E0.01177
G1 X71.828 Y124.421 E0.02549
G1 X71.293 Y124.419 E0.01594
G1 X70.867 Y123.993 E0.01795
G1 X70.511 Y124.171 E0.01186
G1 X70.758 Y124.418 E0.01042
G1 X70.223 Y124.416 E0.01594
G1 X70.028 Y124.222 E0.00822
G1 F12000
G1 X70.223 Y124.416 E-0.04583
G1 F12000
G1 X70.758 Y124.418 E-0.08894
G1 F12000
G1 X70.511 Y124.171 E-0.05811
G1 F12000
G1 X70.867 Y123.993 E-0.06616
G1 F12000
G1 X71.293 Y124.419 E-0.10015
G1 F12000
G1 X71.828 Y124.421 E-0.08894
G1 F12000
G1 X71.223 Y123.816 E-0.14218
G1 F12000
G1 X71.572 Y123.632 E-0.06565
G1 F12000
G1 X72.015 Y124.074 E-0.10404
G1 E-0.04000 F2100.00000
G1 Z0.800 F15000.000
G1 X128.166 Y119.397 F15000.000
G1 Z0.200 F15000.000
G1 E0.80000 F2100.00000
G1 F1800
