; generated by Slic3r Prusa Edition 1.38.6-prusa3d-win64 on 2018-01-02 at 16:52:33

; 

; external perimeters extrusion width = 0.45mm
; perimeters extrusion width = 0.45mm
; infill extrusion width = 0.45mm
; solid infill extrusion width = 0.45mm
; top infill extrusion width = 0.40mm
; first layer extrusion width = 0.42mm

M107
M115 U3.1.1-RC4 ; tell printer latest fw version
M83  ; extruder relative mode
M104 S215 ; set extruder temp
M140 S60 ; set bed temp
M190 S60 ; wait for bed temp
M109 S215 ; wait for extruder temp
G28 W ; home all without mesh bed level
G80 ; mesh bed leveling
G1 Y-3.0 F1000.0 ; go outside print area
G92 E0.0
G1 X60.0 E9.0  F1000.0 ; intro line
G1 X100.0 E12.5  F1000.0 ; intro line
G92 E0.0
M900 K30; Filament gcode
G21 ; set units to millimeters
G90 ; use absolute coordinates
M83 ; use relative distances for extrusion
;BEFORE_LAYER_CHANGE
;0.2


G1 E-0.80000 F2100.00000
G1 Z0.600 F15000.000
;AFTER_LAYER_CHANGE
;0.2
G1 X99.608 Y58.909 F15000.000
G1 Z0.200 F15000.000
G1 E0.80000 F2100.00000
M204 S1000
G1 F1800
G1 X99.688 Y58.773 E0.00470
G1 X100.567 Y57.786 E0.03935
G1 X101.291 Y57.208 E0.02761
G1 X102.086 Y56.744 E0.02741
G1 X103.515 Y56.194 E0.04561
G1 X105.537 Y55.848 E0.06111
G1 X108.355 Y55.712 E0.08402
G1 X125.350 Y55.643 E0.50624
G1 X140.535 Y55.690 E0.45231
G1 X143.779 Y55.797 E0.09667
G1 X145.644 Y56.003 E0.05590
G1 X146.570 Y56.220 E0.02832
G1 X147.925 Y56.748 E0.04332
G1 X148.708 Y57.207 E0.02703
G1 X149.356 Y57.714 E0.02450
G1 X149.956 Y58.325 E0.02550
G1 X150.690 Y59.352 E0.03760
G1 X151.063 Y60.066 E0.02399
G1 X151.517 Y61.263 E0.03816
G1 X151.825 Y62.751 E0.04524
G1 X151.895 Y65.066 E0.06900
G1 X148.846 Y136.874 E2.14085
G1 X148.586 Y138.550 E0.05052
G1 X148.028 Y140.086 E0.04866
G1 X146.725 Y142.491 E0.08150
G1 X145.983 Y143.632 E0.04053
G1 X145.070 Y144.832 E0.04491
G1 X143.960 Y146.006 E0.04813
G1 X142.352 Y147.327 E0.06198
G1 X136.723 Y150.955 E0.19947
G1 X134.988 Y151.898 E0.05883
G1 X133.308 Y152.643 E0.05475
G1 X131.764 Y153.166 E0.04855
G1 X130.524 Y153.464 E0.03800
G1 X128.537 Y153.737 E0.05972
G1 X123.145 Y154.231 E0.16131
G1 X120.948 Y154.347 E0.06553
G1 X119.084 Y154.330 E0.05553
G1 X116.543 Y154.021 E0.07625
G1 X115.234 Y153.713 E0.04004
G1 X113.721 Y153.241 E0.04719
G1 X110.135 Y151.823 E0.11489
G1 X105.413 Y149.669 E0.15459
G1 X104.798 Y149.260 E0.02199
G1 X104.261 Y148.784 E0.02139
G1 X103.418 Y147.665 E0.04172
G1 X102.788 Y146.223 E0.04687
G1 X102.200 Y144.065 E0.06664
G1 X102.004 Y142.843 E0.03687
G1 X100.988 Y131.128 E0.35027
G1 X98.105 Y65.083 E1.96913
G1 X98.109 Y63.439 E0.04895
G1 X98.296 Y62.017 E0.04273
G1 X98.515 Y61.162 E0.02628
G1 X98.985 Y59.962 E0.03839
G1 X99.578 Y58.960 E0.03466
G1 F12000
G1 X99.688 Y58.773 E-0.03618
G1 F12000
G1 X100.567 Y57.786 E-0.21964
G1 F12000
G1 X101.291 Y57.208 E-0.15409
G1 F12000
G1 X102.086 Y56.744 E-0.15297
G1 F12000
G1 X103.192 Y56.318 E-0.19712
G1 E-0.04000 F2100.00000
G1 Z0.800 F15000.000
G1 X108.034 Y64.805 F15000.000
G1 Z0.200 F15000.000
G1 E0.80000 F2100.00000
G1 F1800
G1 X108.270 Y64.504 E0.01140
G1 X108.553 Y64.246 E0.01140
G1 X108.874 Y64.038 E0.01140
G1 X109.225 Y63.885 E0.01140
G1 X109.596 Y63.792 E0.01140
G1 X109.953 Y63.762 E0.01068
G1 X140.047 Y63.762 E0.89641
G1 X140.404 Y63.792 E0.01068
G1 X140.775 Y63.885 E0.01140
G1 X141.126 Y64.038 E0.01140
G1 X141.447 Y64.246 E0.01140
G1 X141.730 Y64.504 E0.01140
G1 X141.966 Y64.805 E0.01140
G1 X142.150 Y65.141 E0.01140
G1 X142.277 Y65.502 E0.01140
G1 X142.342 Y65.879 E0.01140
G1 X142.345 Y66.262 E0.01140
G1 X142.290 Y66.616 E0.01068
G1 X139.055 Y79.903 E0.40734
G1 X138.668 Y81.061 E0.03637
G1 X138.084 Y82.161 E0.03710
G1 X137.325 Y83.149 E0.03710
G1 X136.883 Y83.560 E0.01798
G1 X136.413 Y83.997 E0.01912
G1 X135.373 Y84.682 E0.03710
G1 X134.234 Y85.186 E0.03710
G1 X133.027 Y85.494 E0.03710
G1 X131.810 Y85.595 E0.03637
G1 X118.190 Y85.595 E0.40571
G1 X116.973 Y85.494 E0.03637
G1 X115.766 Y85.186 E0.03710
G1 X114.627 Y84.682 E0.03710
G1 X113.587 Y83.997 E0.03710
G1 X112.675 Y83.149 E0.03710
G1 X111.916 Y82.161 E0.03710
G1 X111.332 Y81.061 E0.03710
G1 X110.945 Y79.903 E0.03637
G1 X107.711 Y66.616 E0.40734
G1 X107.655 Y66.262 E0.01068
G1 X107.658 Y65.879 E0.01140
G1 X107.723 Y65.502 E0.01140
G1 X107.850 Y65.141 E0.01140
G1 X108.005 Y64.858 E0.00961
G1 X108.336 Y65.039 F15000.000
G1 F1800
G1 X108.548 Y64.762 E0.01040
G1 X108.784 Y64.546 E0.00955
G1 X109.053 Y64.371 E0.00955
G1 X109.347 Y64.243 E0.00955
G1 X109.658 Y64.165 E0.00955
G1 X109.968 Y64.139 E0.00929
G1 X140.032 Y64.139 E0.89548
G1 X140.342 Y64.165 E0.00929
G1 X140.653 Y64.243 E0.00955
G1 X140.947 Y64.371 E0.00955
G1 X141.216 Y64.546 E0.00955
G1 X141.452 Y64.762 E0.00955
G1 X141.650 Y65.014 E0.00955
G1 X141.805 Y65.295 E0.00955
G1 X141.911 Y65.597 E0.00955
G1 X141.966 Y65.913 E0.00955
G1 X141.968 Y66.234 E0.00955
G1 X141.919 Y66.542 E0.00929
G1 X138.692 Y79.799 E0.40641
G1 X138.321 Y80.912 E0.03496
G1 X137.766 Y81.956 E0.03523
G1 X137.045 Y82.894 E0.03523
G1 X136.626 Y83.284 E0.01704
G1 X136.179 Y83.699 E0.01818
G1 X135.192 Y84.350 E0.03522
G1 X134.110 Y84.828 E0.03523
G1 X132.964 Y85.121 E0.03523
G1 X131.795 Y85.218 E0.03496
G1 X118.205 Y85.218 E0.40477
G1 X117.036 Y85.121 E0.03496
G1 X115.890 Y84.828 E0.03523
G1 X114.808 Y84.350 E0.03523
G1 X113.821 Y83.699 E0.03522
G1 X112.955 Y82.894 E0.03523
G1 X112.234 Y81.956 E0.03523
G1 X111.679 Y80.912 E0.03523
G1 X111.308 Y79.799 E0.03496
G1 X108.081 Y66.542 E0.40641
G1 X108.032 Y66.234 E0.00929
G1 X108.035 Y65.913 E0.00955
G1 X108.090 Y65.597 E0.00955
G1 X108.195 Y65.295 E0.00955
G1 X108.307 Y65.092 E0.00690
G1 X108.176 Y64.729 F15000.000
G1 F12000
G1 X108.548 Y64.762 E-0.06791
G1 F12000
G1 X108.784 Y64.546 E-0.05329
G1 F12000
G1 X109.053 Y64.371 E-0.05329
G1 F12000
G1 X109.347 Y64.243 E-0.05328
G1 F12000
G1 X109.658 Y64.165 E-0.05328
G1 F12000
G1 X109.968 Y64.139 E-0.05184
G1 F12000
G1 X112.537 Y64.139 E-0.42711
G1 E-0.04000 F2100.00000
G1 Z0.800 F15000.000
G1 X142.501 Y127.994 F15000.000
G1 Z0.200 F15000.000
G1 E0.80000 F2100.00000
G1 F1800
G1 X143.931 Y128.313 E0.04364
G1 X144.040 Y128.372 E0.00369
G1 X144.271 Y128.555 E0.00879
G1 X144.532 Y128.837 E0.01142
G1 X144.805 Y129.225 E0.01414
G1 X145.048 Y129.671 E0.01515
G1 X145.329 Y130.356 E0.02204
G1 X145.447 Y130.733 E0.01176
G1 X145.649 Y131.584 E0.02608
G1 X145.734 Y132.083 E0.01506
G1 X145.862 Y133.226 E0.03425
G1 X145.903 Y133.822 E0.01780
G1 X145.941 Y135.039 E0.03629
G1 X145.920 Y136.177 E0.03389
G1 X145.889 Y136.669 E0.01467
G1 X145.790 Y137.458 E0.02370
G1 X145.630 Y138.103 E0.01980
G1 X145.365 Y138.782 E0.02169
G1 X145.011 Y139.496 E0.02376
G1 X144.217 Y140.911 E0.04832
G1 X143.559 Y141.926 E0.03603
G1 X143.200 Y142.422 E0.01824
G1 X142.817 Y142.905 E0.01836
G1 X142.415 Y143.362 E0.01813
G1 X141.992 Y143.788 E0.01788
G1 X141.503 Y144.228 E0.01960
G1 X141.040 Y144.604 E0.01777
G1 X140.048 Y145.326 E0.03655
G1 X139.003 Y146.016 E0.03728
G1 X136.293 Y147.750 E0.09583
G1 X135.225 Y148.397 E0.03721
G1 X134.182 Y148.981 E0.03559
G1 X133.166 Y149.484 E0.03376
G1 X132.685 Y149.697 E0.01569
G1 X131.731 Y150.067 E0.03048
G1 X130.871 Y150.339 E0.02687
G1 X130.440 Y150.450 E0.01324
G1 X129.579 Y150.621 E0.02614
G1 X128.228 Y150.789 E0.04056
G1 X124.171 Y151.172 E0.12140
G1 X122.483 Y151.306 E0.05042
G1 X121.238 Y151.372 E0.03715
G1 X120.464 Y151.392 E0.02305
G1 X119.329 Y151.375 E0.03380
G1 X118.649 Y151.331 E0.02031
G1 X117.993 Y151.259 E0.01966
G1 X117.353 Y151.159 E0.01928
G1 X116.661 Y151.017 E0.02104
G1 X116.021 Y150.856 E0.01965
G1 X115.366 Y150.663 E0.02036
G1 X114.301 Y150.302 E0.03349
G1 X112.833 Y149.737 E0.04685
G1 X111.307 Y149.100 E0.04926
G1 X108.061 Y147.667 E0.10570
G1 X107.403 Y147.365 E0.02155
G1 X106.941 Y147.128 E0.01548
G1 X106.617 Y146.917 E0.01152
G1 X106.363 Y146.692 E0.01010
G1 X106.187 Y146.488 E0.00804
G1 X106.003 Y146.214 E0.00982
G1 X105.730 Y145.643 E0.01885
G1 X105.467 Y144.855 E0.02474
G1 X105.208 Y143.911 E0.02916
G1 X105.078 Y143.351 E0.01713
G1 X104.978 Y142.785 E0.01714
G1 X104.930 Y142.247 E0.01608
G1 X104.945 Y141.755 E0.01465
G1 X105.043 Y141.228 E0.01598
G1 X105.178 Y140.812 E0.01302
G1 X105.405 Y140.326 E0.01600
G1 X105.744 Y139.765 E0.01950
G1 X106.081 Y139.293 E0.01728
G1 X106.498 Y138.786 E0.01955
G1 X106.942 Y138.313 E0.01933
G1 X107.495 Y137.809 E0.02229
G1 X108.070 Y137.376 E0.02144
G1 X108.392 Y136.954 E0.01579
G1 X108.640 Y136.536 E0.01448
G1 X108.824 Y136.071 E0.01490
G1 X108.912 Y135.563 E0.01537
G1 X108.878 Y135.029 E0.01592
G1 X108.124 Y131.387 E0.11079
G1 X106.454 Y131.649 E0.05035
G1 X105.621 Y131.704 E0.02487
G1 X105.173 Y131.698 E0.01336
G1 X104.688 Y131.662 E0.01448
G1 X104.173 Y131.589 E0.01550
G1 X104.002 Y131.553 E0.00519
G1 X103.976 Y131.383 E0.00511
G1 X103.951 Y131.011 E0.01111
G1 X103.968 Y130.793 E0.00651
G1 X104.001 Y130.677 E0.00359
G1 X104.043 Y130.602 E0.00255
G1 X104.390 Y130.200 E0.01583
G1 X104.529 Y129.978 E0.00779
G1 X104.634 Y129.716 E0.00840
G1 X104.740 Y129.185 E0.01614
G1 X104.927 Y127.529 E0.04965
G1 X105.082 Y126.417 E0.03344
G1 X105.278 Y125.335 E0.03275
G1 X105.384 Y124.895 E0.01348
G1 X105.499 Y124.525 E0.01154
G1 X105.628 Y124.221 E0.00984
G1 X105.777 Y123.966 E0.00880
G1 X105.928 Y123.773 E0.00732
G1 X106.375 Y123.344 E0.01844
G1 X106.148 Y122.220 E0.03415
G1 X106.031 Y121.358 E0.02590
G1 X105.958 Y120.416 E0.02816
G1 X105.933 Y119.304 E0.03311
G1 X105.820 Y118.907 E0.01230
G1 X105.734 Y118.284 E0.01875
G1 X105.659 Y117.397 E0.02652
G1 X105.627 Y116.378 E0.03036
G1 X105.654 Y115.318 E0.03159
G1 X105.731 Y114.259 E0.03163
G1 X105.902 Y112.696 E0.04682
G1 X106.180 Y110.640 E0.06181
G1 X106.458 Y109.109 E0.04635
G1 X107.242 Y105.768 E0.10221
G1 X107.848 Y102.866 E0.08830
G1 X108.097 Y101.961 E0.02797
G1 X108.244 Y101.563 E0.01264
G1 X108.418 Y101.189 E0.01229
G1 X108.647 Y100.824 E0.01283
G1 X108.973 Y100.431 E0.01520
G1 X109.447 Y99.980 E0.01949
G1 X109.771 Y99.713 E0.01252
G1 X110.465 Y99.204 E0.02561
G1 X111.140 Y98.780 E0.02376
G1 X111.730 Y98.493 E0.01953
G1 X112.478 Y98.264 E0.02330
G1 X112.235 Y96.927 E0.04048
G1 X112.057 Y96.360 E0.01769
G1 X110.260 Y91.631 E0.15068
G1 X108.932 Y88.224 E0.10894
G1 X107.671 Y85.061 E0.10142
G1 X103.989 Y76.096 E0.28869
G1 X103.290 Y74.268 E0.05828
G1 X102.792 Y72.845 E0.04491
G1 X102.366 Y71.511 E0.04172
G1 X102.009 Y70.265 E0.03861
G1 X101.716 Y69.109 E0.03552
G1 X101.385 Y67.531 E0.04803
G1 X101.179 Y66.189 E0.04044
G1 X101.090 Y65.294 E0.02678
G1 X101.048 Y64.251 E0.03111
G1 X101.068 Y63.628 E0.01856
G1 X101.123 Y63.065 E0.01686
G1 X101.211 Y62.556 E0.01538
G1 X101.329 Y62.092 E0.01425
G1 X101.476 Y61.664 E0.01348
G1 X101.649 Y61.262 E0.01304
G1 X101.848 Y60.885 E0.01270
G1 X102.072 Y60.536 E0.01235
G1 X102.327 Y60.217 E0.01217
G1 X102.618 Y59.926 E0.01226
G1 X102.955 Y59.663 E0.01272
G1 X103.345 Y59.427 E0.01358
G1 X103.799 Y59.220 E0.01486
G1 X104.325 Y59.046 E0.01649
G1 X104.953 Y58.907 E0.01918
G1 X105.830 Y58.798 E0.02631
G1 X106.404 Y58.755 E0.01713
G1 X107.553 Y58.701 E0.03428
G1 X109.517 Y58.654 E0.05850
G1 X114.931 Y58.614 E0.16128
G1 X135.502 Y58.615 E0.61274
G1 X140.483 Y58.654 E0.14839
G1 X142.447 Y58.701 E0.05850
G1 X144.170 Y58.798 E0.05141
G1 X145.047 Y58.907 E0.02631
G1 X145.675 Y59.046 E0.01918
G1 X146.201 Y59.220 E0.01649
G1 X146.655 Y59.427 E0.01486
G1 X147.045 Y59.663 E0.01358
G1 X147.382 Y59.926 E0.01272
G1 X147.673 Y60.217 E0.01226
G1 X147.928 Y60.536 E0.01217
G1 X148.152 Y60.885 E0.01235
G1 X148.351 Y61.262 E0.01270
G1 X148.524 Y61.664 E0.01304
G1 X148.671 Y62.092 E0.01348
G1 X148.789 Y62.556 E0.01425
G1 X148.877 Y63.065 E0.01538
G1 X148.932 Y63.628 E0.01686
G1 X148.952 Y64.254 E0.01867
G1 X148.933 Y64.952 E0.02078
G1 X148.873 Y65.724 E0.02307
G1 X148.689 Y67.097 E0.04126
G1 X148.409 Y68.560 E0.04436
G1 X147.991 Y70.267 E0.05236
G1 X147.634 Y71.509 E0.03847
G1 X146.968 Y73.547 E0.06386
G1 X146.270 Y75.435 E0.05996
G1 X145.468 Y77.440 E0.06434
G1 X142.851 Y83.774 E0.20413
G1 X141.437 Y87.292 E0.11293
G1 X139.579 Y92.050 E0.15216
G1 X137.357 Y97.929 E0.18721
G1 X137.201 Y98.415 E0.01520
G1 X137.090 Y98.922 E0.01543
G1 X137.018 Y99.444 E0.01571
G1 X136.970 Y100.019 E0.01719
G1 X136.941 Y101.346 E0.03954
G1 X136.978 Y102.538 E0.03553
G1 X137.139 Y104.716 E0.06505
G1 X137.210 Y106.365 E0.04917
G1 X137.315 Y107.964 E0.04773
G1 X137.689 Y112.563 E0.13742
G1 X137.757 Y113.043 E0.01446
G1 X137.873 Y113.543 E0.01529
G1 X138.224 Y114.461 E0.02927
G1 X138.485 Y114.940 E0.01625
G1 X139.376 Y116.042 E0.04222
G1 X140.202 Y116.887 E0.03520
G1 X140.775 Y117.568 E0.02650
G1 X141.107 Y118.017 E0.01663
G1 X141.855 Y119.163 E0.04078
G1 X142.482 Y120.233 E0.03692
G1 X142.956 Y121.125 E0.03011
G1 X143.342 Y121.948 E0.02707
G1 X143.653 Y122.744 E0.02547
G1 X143.884 Y123.488 E0.02319
G1 X144.105 Y124.444 E0.02923
G1 X144.245 Y125.382 E0.02824
G1 X144.255 Y125.651 E0.00803
G1 X144.233 Y125.861 E0.00628
G1 X144.174 Y126.079 E0.00673
G1 X144.068 Y126.348 E0.00861
G1 X143.925 Y126.633 E0.00949
G1 X143.766 Y126.885 E0.00889
G1 X143.616 Y127.066 E0.00699
G1 X142.547 Y127.955 E0.04141
G1 X143.332 Y127.793 F15000.000
G1 F1800
G1 X144.064 Y127.957 E0.02235
G1 X144.248 Y128.056 E0.00623
G1 X144.528 Y128.278 E0.01065
G1 X144.825 Y128.599 E0.01303
G1 X145.126 Y129.025 E0.01552
G1 X145.390 Y129.509 E0.01642
G1 X145.684 Y130.228 E0.02314
G1 X145.811 Y130.632 E0.01263
G1 X146.019 Y131.509 E0.02684
G1 X146.108 Y132.030 E0.01574
G1 X146.238 Y133.192 E0.03482
G1 X146.280 Y133.803 E0.01826
G1 X146.318 Y135.037 E0.03677
G1 X146.297 Y136.192 E0.03442
G1 X146.265 Y136.704 E0.01528
G1 X146.161 Y137.527 E0.02471
G1 X145.990 Y138.218 E0.02119
G1 X145.711 Y138.934 E0.02292
G1 X145.344 Y139.673 E0.02454
G1 X144.540 Y141.106 E0.04897
G1 X143.870 Y142.139 E0.03668
G1 X143.500 Y142.650 E0.01878
G1 X143.106 Y143.147 E0.01889
G1 X142.690 Y143.619 E0.01875
G1 X142.252 Y144.061 E0.01854
G1 X141.748 Y144.514 E0.02020
G1 X141.270 Y144.903 E0.01835
G1 X140.262 Y145.636 E0.03710
G1 X139.209 Y146.332 E0.03762
G1 X136.492 Y148.070 E0.09605
G1 X135.415 Y148.723 E0.03754
G1 X134.358 Y149.315 E0.03607
G1 X133.326 Y149.825 E0.03429
G1 X132.829 Y150.045 E0.01619
G1 X131.856 Y150.423 E0.03110
G1 X130.975 Y150.701 E0.02753
G1 X130.524 Y150.818 E0.01386
G1 X129.639 Y150.994 E0.02687
G1 X128.269 Y151.164 E0.04114
G1 X124.203 Y151.548 E0.12165
G1 X122.508 Y151.683 E0.05065
G1 X121.252 Y151.749 E0.03746
G1 X120.466 Y151.769 E0.02344
G1 X119.314 Y151.752 E0.03430
G1 X118.616 Y151.706 E0.02084
G1 X117.943 Y151.633 E0.02017
G1 X117.286 Y151.530 E0.01980
G1 X116.577 Y151.385 E0.02156
G1 X115.922 Y151.220 E0.02012
G1 X115.252 Y151.023 E0.02081
G1 X114.173 Y150.657 E0.03394
G1 X112.693 Y150.087 E0.04724
G1 X111.158 Y149.446 E0.04953
G1 X107.906 Y148.011 E0.10589
G1 X107.238 Y147.704 E0.02188
G1 X106.752 Y147.454 E0.01630
G1 X106.388 Y147.218 E0.01293
G1 X106.094 Y146.958 E0.01169
G1 X105.886 Y146.717 E0.00947
G1 X105.679 Y146.408 E0.01109
G1 X105.531 Y146.127 E0.00944
G1 X105.377 Y145.779 E0.01133
G1 X105.106 Y144.965 E0.02557
G1 X104.843 Y144.004 E0.02968
G1 X104.708 Y143.427 E0.01765
G1 X104.604 Y142.834 E0.01792
G1 X104.552 Y142.258 E0.01723
G1 X104.569 Y141.715 E0.01620
G1 X104.677 Y141.135 E0.01757
G1 X104.826 Y140.673 E0.01445
G1 X105.072 Y140.148 E0.01729
G1 X105.429 Y139.558 E0.02052
G1 X105.782 Y139.064 E0.01809
G1 X106.214 Y138.537 E0.02031
G1 X106.674 Y138.047 E0.02001
G1 X107.258 Y137.516 E0.02350
G1 X107.802 Y137.106 E0.02029
G1 X108.079 Y136.743 E0.01360
G1 X108.300 Y136.370 E0.01293
G1 X108.459 Y135.969 E0.01284
G1 X108.532 Y135.542 E0.01289
G1 X108.503 Y135.080 E0.01381
G1 X107.828 Y131.815 E0.09930
G1 X106.496 Y132.024 E0.04015
G1 X105.631 Y132.081 E0.02583
G1 X105.156 Y132.075 E0.01415
G1 X104.647 Y132.037 E0.01519
G1 X104.107 Y131.960 E0.01625
G1 X103.670 Y131.868 E0.01332
G1 X103.601 Y131.425 E0.01336
G1 X103.573 Y131.009 E0.01241
G1 X103.595 Y130.725 E0.00848
G1 X103.651 Y130.532 E0.00600
G1 X103.732 Y130.386 E0.00497
G1 X104.086 Y129.976 E0.01614
G1 X104.191 Y129.807 E0.00592
G1 X104.271 Y129.609 E0.00636
G1 X104.367 Y129.127 E0.01463
G1 X104.553 Y127.482 E0.04932
G1 X104.709 Y126.357 E0.03382
